;FLAVOR:Marlin
;TIME:10038
;Filament used: 6.81403m
;Layer height: 0.2
;MINX:53.941
;MINY:68.426
;MINZ:0.2
;MAXX:166.059
;MAXY:151.573
;MAXZ:14.4
;Generated with Cura_SteamEngine 4.4.1
M140 S60
M105
M190 S60
M104 S200
M105
M109 S200
M82 ;absolute extrusion mode
M201 X500.00 Y500.00 Z100.00 E5000.00 ;Setup machine max acceleration
M203 X500.00 Y500.00 Z10.00 E50.00 ;Setup machine max feedrate
M204 P500.00 R1000.00 T500.00 ;Setup Print/Retract/Travel acceleration
M205 X8.00 Y8.00 Z0.40 E5.00 ;Setup Jerk
M220 S100 ;Reset Feedrate
M221 S100 ;Reset Flowrate

G28 ;Home

G92 E0 ;Reset Extruder
G1 Z2.0 F3000 ;Move Z Axis up
G1 X10.1 Y20 Z0.28 F5000.0 ;Move to start position
G1 X10.1 Y200.0 Z0.28 F1500.0 E15 ;Draw the first line
G1 X10.4 Y200.0 Z0.28 F5000.0 ;Move to side a little
G1 X10.4 Y20 Z0.28 F1500.0 E30 ;Draw the second line
G92 E0 ;Reset Extruder
G1 Z2.0 F3000 ;Move Z Axis up

G92 E0
G92 E0
G1 F1500 E-6.5
;LAYER_COUNT:72
;LAYER:0
M107
G0 F6000 X59.216 Y70.771 Z0.2
;TYPE:SKIRT
G1 F1500 E0
G1 F1200 X59.98 Y70.226 E0.03121
G1 X60.787 Y69.748 E0.06241
G1 X61.631 Y69.34 E0.09359
G1 X62.508 Y69.006 E0.1248
G1 X63.409 Y68.748 E0.15597
G1 X64.329 Y68.567 E0.18716
G1 X65.262 Y68.466 E0.21837
G1 X65.733 Y68.445 E0.23405
G1 X66.3 Y68.432 E0.25292
G1 X66.533 Y68.429 E0.26067
G1 X67.1 Y68.428 E0.27953
G1 X67.119 Y68.428 E0.28016
G1 X118.112 Y68.427 E1.97619
G1 X153.273 Y68.426 E3.14565
G1 X153.429 Y68.427 E3.15084
G1 X154.132 Y68.437 E3.17422
G1 X155.069 Y68.49 E3.20544
G1 X155.997 Y68.623 E3.23662
G1 X156.911 Y68.835 E3.26783
G1 X157.803 Y69.123 E3.299
G1 X158.668 Y69.487 E3.33022
G1 X159.498 Y69.923 E3.3614
G1 X160.289 Y70.428 E3.39261
G1 X161.033 Y70.998 E3.42379
G1 X161.637 Y71.543 E3.45084
G1 X162.148 Y72.039 E3.47453
G1 X162.37 Y72.26 E3.48495
G1 X162.841 Y72.744 E3.50741
G1 X163.466 Y73.444 E3.53862
G1 X164.029 Y74.194 E3.56981
G1 X164.526 Y74.989 E3.601
G1 X164.954 Y75.824 E3.63221
G1 X165.309 Y76.692 E3.6634
G1 X165.588 Y77.587 E3.69458
G1 X165.79 Y78.503 E3.72578
G1 X165.914 Y79.433 E3.75698
G1 X165.949 Y79.974 E3.77501
G1 X165.972 Y80.546 E3.79405
G1 X165.981 Y80.988 E3.80876
G1 X165.981 Y84.507 E3.9258
G1 X166.022 Y87.324 E4.0195
G1 X166.049 Y88.237 E4.04988
G1 X166.054 Y88.556 E4.06049
G1 X166.059 Y107.545 E4.69207
G1 X166.058 Y107.702 E4.69729
G1 X166.041 Y108.913 E4.73757
G1 X166.038 Y109.072 E4.74286
G1 X165.995 Y110.58 E4.79304
G1 X165.985 Y111.913 E4.83738
G1 X165.981 Y139.853 E5.76667
G1 X165.98 Y140.005 E5.77172
G1 X165.97 Y140.717 E5.7954
G1 X165.917 Y141.654 E5.82662
G1 X165.784 Y142.582 E5.8578
G1 X165.573 Y143.496 E5.889
G1 X165.284 Y144.388 E5.92019
G1 X164.921 Y145.253 E5.95139
G1 X164.485 Y146.084 E5.9826
G1 X163.98 Y146.874 E6.01378
G1 X163.41 Y147.619 E6.04498
G1 X162.778 Y148.312 E6.07618
G1 X162.09 Y148.949 E6.10736
G1 X161.35 Y149.525 E6.13855
G1 X160.563 Y150.035 E6.16974
G1 X159.736 Y150.477 E6.20093
G1 X158.874 Y150.847 E6.23213
G1 X157.984 Y151.142 E6.26332
G1 X157.072 Y151.361 E6.29451
G1 X156.144 Y151.5 E6.32572
G1 X155.298 Y151.558 E6.35393
G1 X154.962 Y151.568 E6.36511
G1 X154.635 Y151.573 E6.37599
G1 X65.649 Y151.573 E9.33567
G1 X65.507 Y151.572 E9.34039
G1 X64.809 Y151.563 E9.36361
G1 X63.873 Y151.511 E9.39479
G1 X62.944 Y151.379 E9.426
G1 X62.03 Y151.169 E9.45719
G1 X61.137 Y150.882 E9.48839
G1 X60.272 Y150.519 E9.51959
G1 X59.441 Y150.085 E9.55077
G1 X58.65 Y149.581 E9.58197
G1 X57.905 Y149.011 E9.61317
G1 X57.211 Y148.38 E9.64436
G1 X56.574 Y147.693 E9.67552
G1 X55.997 Y146.953 E9.70673
G1 X55.485 Y146.167 E9.73793
G1 X55.042 Y145.34 E9.76914
G1 X54.671 Y144.479 E9.80032
G1 X54.375 Y143.589 E9.83152
G1 X54.156 Y142.677 E9.86271
G1 X54.015 Y141.75 E9.8939
G1 X53.955 Y140.861 E9.92353
G1 X53.946 Y140.528 E9.93461
G1 X53.942 Y140.237 E9.94429
G1 X53.941 Y138.46 E10.0034
G1 X53.941 Y81.132 E11.91013
G1 X53.942 Y80.975 E11.91536
G1 X53.952 Y80.274 E11.93867
G1 X54.005 Y79.338 E11.96986
G1 X54.138 Y78.409 E12.00107
G1 X54.35 Y77.496 E12.03224
G1 X54.638 Y76.603 E12.06345
G1 X55.002 Y75.739 E12.09463
G1 X55.438 Y74.908 E12.12585
G1 X55.943 Y74.118 E12.15703
G1 X56.513 Y73.374 E12.1882
G1 X57.067 Y72.76 E12.21571
G1 X57.247 Y72.575 E12.2243
G1 X57.5 Y72.323 E12.23617
G1 X57.826 Y72.009 E12.25123
G1 X57.974 Y71.869 E12.258
G1 X58.502 Y71.379 E12.28196
G1 X59.216 Y70.771 E12.31315
G0 F6000 X59.476 Y71.076
G1 F1200 X60.226 Y70.543 E12.34376
G1 X61.02 Y70.077 E12.37438
G1 X61.852 Y69.681 E12.40502
G1 X62.714 Y69.359 E12.43563
G1 X63.601 Y69.113 E12.46624
G1 X64.507 Y68.946 E12.49688
G1 X65.742 Y68.845 E12.5381
G1 X66.309 Y68.832 E12.55696
G1 X66.533 Y68.829 E12.56441
G1 X67.1 Y68.828 E12.58327
G1 X67.119 Y68.828 E12.5839
G1 X118.112 Y68.827 E14.27994
G1 X153.273 Y68.826 E15.4494
G1 X153.424 Y68.827 E15.45442
G1 X154.127 Y68.837 E15.4778
G1 X155.046 Y68.89 E15.50842
G1 X155.957 Y69.023 E15.53904
G1 X156.853 Y69.234 E15.56966
G1 X157.727 Y69.522 E15.60026
G1 X158.574 Y69.885 E15.63091
G1 X159.385 Y70.32 E15.66152
G1 X160.156 Y70.824 E15.69216
G1 X160.88 Y71.392 E15.72277
G1 X161.359 Y71.83 E15.74435
G1 X161.87 Y72.326 E15.76804
G1 X162.084 Y72.539 E15.77808
G1 X162.555 Y73.023 E15.80054
G1 X163.167 Y73.71 E15.83115
G1 X163.718 Y74.448 E15.86178
G1 X164.203 Y75.231 E15.89241
G1 X164.618 Y76.053 E15.92304
G1 X164.96 Y76.907 E15.95364
G1 X165.227 Y77.788 E15.98425
G1 X165.416 Y78.689 E16.01487
G1 X165.549 Y79.99 E16.05837
G1 X165.572 Y80.562 E16.07741
G1 X165.581 Y80.988 E16.09158
G1 X165.581 Y84.513 E16.20883
G1 X165.622 Y87.342 E16.30293
G1 X165.649 Y88.249 E16.33311
G1 X165.654 Y88.556 E16.34332
G1 X165.659 Y107.545 E16.9749
G1 X165.658 Y107.697 E16.97995
G1 X165.641 Y108.908 E17.02023
G1 X165.638 Y109.061 E17.02532
G1 X165.595 Y110.566 E17.0754
G1 X165.585 Y111.91 E17.1201
G1 X165.581 Y139.853 E18.04949
G1 X165.58 Y140 E18.05438
G1 X165.57 Y140.712 E18.07807
G1 X165.517 Y141.631 E18.10868
G1 X165.385 Y142.542 E18.1393
G1 X165.174 Y143.438 E18.16991
G1 X164.886 Y144.313 E18.20055
G1 X164.523 Y145.159 E18.23117
G1 X164.088 Y145.97 E18.26178
G1 X163.584 Y146.741 E18.29242
G1 X163.016 Y147.465 E18.32302
G1 X162.387 Y148.137 E18.35364
G1 X161.701 Y148.752 E18.38428
G1 X160.965 Y149.305 E18.4149
G1 X160.184 Y149.792 E18.44551
G1 X159.364 Y150.21 E18.47613
G1 X158.51 Y150.555 E18.50676
G1 X157.63 Y150.824 E18.53737
G1 X156.729 Y151.016 E18.56801
G1 X155.816 Y151.129 E18.5986
G1 X155.286 Y151.158 E18.61626
G1 X154.95 Y151.168 E18.62744
G1 X154.635 Y151.173 E18.63792
G1 X65.649 Y151.173 E21.5976
G1 X65.512 Y151.172 E21.60216
G1 X64.814 Y151.163 E21.62538
G1 X63.895 Y151.111 E21.65599
G1 X62.984 Y150.98 E21.6866
G1 X62.088 Y150.77 E21.71721
G1 X61.213 Y150.483 E21.74784
G1 X60.366 Y150.121 E21.77848
G1 X59.554 Y149.687 E21.8091
G1 X58.783 Y149.185 E21.8397
G1 X58.058 Y148.617 E21.87033
G1 X57.385 Y147.988 E21.90097
G1 X56.77 Y147.304 E21.93157
G1 X56.216 Y146.569 E21.96218
G1 X55.728 Y145.788 E21.99281
G1 X55.309 Y144.968 E22.02344
G1 X54.963 Y144.115 E22.05405
G1 X54.693 Y143.235 E22.08467
G1 X54.5 Y142.334 E22.11532
G1 X54.386 Y141.421 E22.14592
G1 X54.355 Y140.85 E22.16494
G1 X54.346 Y140.517 E22.17602
G1 X54.342 Y140.237 E22.18533
G1 X54.341 Y138.46 E22.24443
G1 X54.341 Y81.132 E24.15117
G1 X54.342 Y80.981 E24.15619
G1 X54.352 Y80.28 E24.17951
G1 X54.405 Y79.361 E24.21013
G1 X54.538 Y78.45 E24.24075
G1 X54.749 Y77.554 E24.27137
G1 X55.037 Y76.679 E24.302
G1 X55.4 Y75.833 E24.33262
G1 X55.835 Y75.022 E24.36323
G1 X56.339 Y74.251 E24.39387
G1 X56.908 Y73.527 E24.4245
G1 X57.354 Y73.039 E24.44648
G1 X57.534 Y72.854 E24.45507
G1 X57.777 Y72.611 E24.4665
G1 X58.103 Y72.297 E24.48155
G1 X58.246 Y72.162 E24.48809
G1 X58.774 Y71.672 E24.51205
G1 X59.476 Y71.076 E24.54268
G0 F6000 X59.735 Y71.381
G1 F1200 X60.473 Y70.86 E24.57273
G1 X61.253 Y70.406 E24.60274
G1 X62.071 Y70.023 E24.63279
G1 X62.92 Y69.714 E24.66284
G1 X63.792 Y69.48 E24.69287
G1 X64.682 Y69.326 E24.72291
G1 X65.751 Y69.245 E24.75856
G1 X66.318 Y69.232 E24.77743
G1 X66.534 Y69.229 E24.78461
G1 X67.101 Y69.228 E24.80347
G1 X67.119 Y69.228 E24.80407
G1 X118.112 Y69.227 E26.5001
G1 X153.273 Y69.226 E27.66956
G1 X153.418 Y69.227 E27.67439
G1 X154.121 Y69.237 E27.69777
G1 X155.023 Y69.29 E27.72782
G1 X155.916 Y69.422 E27.75785
G1 X156.794 Y69.633 E27.78788
G1 X157.65 Y69.921 E27.81792
G1 X158.477 Y70.283 E27.84794
G1 X159.269 Y70.717 E27.87798
G1 X160.02 Y71.219 E27.90803
G1 X160.723 Y71.786 E27.93807
G1 X161.08 Y72.117 E27.95426
G1 X161.591 Y72.613 E27.97794
G1 X161.797 Y72.818 E27.98761
G1 X162.268 Y73.302 E28.01007
G1 X162.869 Y73.977 E28.04013
G1 X163.407 Y74.702 E28.07016
G1 X163.879 Y75.472 E28.1002
G1 X164.282 Y76.28 E28.13023
G1 X164.611 Y77.121 E28.16027
G1 X164.865 Y77.988 E28.19032
G1 X165.041 Y78.874 E28.22036
G1 X165.15 Y80.006 E28.25818
G1 X165.173 Y80.578 E28.27722
G1 X165.181 Y80.988 E28.29086
G1 X165.181 Y84.519 E28.40831
G1 X165.222 Y87.292 E28.50055
G1 X165.25 Y88.261 E28.53279
G1 X165.254 Y88.556 E28.5426
G1 X165.259 Y107.545 E29.17418
G1 X165.258 Y107.691 E29.17903
G1 X165.241 Y108.902 E29.21932
G1 X165.238 Y109.049 E29.22421
G1 X165.195 Y110.551 E29.27418
G1 X165.185 Y111.907 E29.31929
G1 X165.181 Y139.852 E30.24874
G1 X165.18 Y139.994 E30.25346
G1 X165.17 Y140.706 E30.27715
G1 X165.117 Y141.608 E30.3072
G1 X164.985 Y142.501 E30.33722
G1 X164.774 Y143.379 E30.36726
G1 X164.487 Y144.235 E30.39728
G1 X164.125 Y145.063 E30.42734
G1 X163.691 Y145.855 E30.45738
G1 X163.189 Y146.605 E30.4874
G1 X162.622 Y147.309 E30.51746
G1 X161.995 Y147.959 E30.5475
G1 X161.314 Y148.551 E30.57751
G1 X160.582 Y149.081 E30.60757
G1 X159.807 Y149.544 E30.6376
G1 X158.993 Y149.936 E30.66765
G1 X158.148 Y150.255 E30.69769
G1 X157.279 Y150.499 E30.72771
G1 X156.391 Y150.664 E30.75775
G1 X155.274 Y150.758 E30.79503
G1 X154.938 Y150.768 E30.80621
G1 X154.635 Y150.773 E30.81629
G1 X65.649 Y150.773 E33.77598
G1 X65.517 Y150.772 E33.78037
G1 X64.819 Y150.763 E33.80358
G1 X63.918 Y150.712 E33.8336
G1 X63.024 Y150.58 E33.86366
G1 X62.146 Y150.371 E33.89367
G1 X61.289 Y150.084 E33.92373
G1 X60.462 Y149.723 E33.95375
G1 X59.669 Y149.29 E33.9838
G1 X58.918 Y148.789 E34.01382
G1 X58.214 Y148.223 E34.04387
G1 X57.563 Y147.597 E34.07391
G1 X56.97 Y146.916 E34.10394
G1 X56.44 Y146.185 E34.13397
G1 X55.976 Y145.41 E34.16402
G1 X55.582 Y144.597 E34.19406
G1 X55.262 Y143.753 E34.22409
G1 X55.018 Y142.883 E34.25414
G1 X54.852 Y141.995 E34.28419
G1 X54.755 Y140.84 E34.32274
G1 X54.746 Y140.507 E34.33382
G1 X54.742 Y140.237 E34.3428
G1 X54.741 Y138.46 E34.4019
G1 X54.741 Y81.132 E36.30864
G1 X54.742 Y80.987 E36.31346
G1 X54.752 Y80.286 E36.33678
G1 X54.805 Y79.384 E36.36683
G1 X54.937 Y78.491 E36.39685
G1 X55.148 Y77.612 E36.42692
G1 X55.436 Y76.756 E36.45696
G1 X55.798 Y75.929 E36.48699
G1 X56.232 Y75.137 E36.51702
G1 X56.735 Y74.387 E36.54706
G1 X57.302 Y73.684 E36.5771
G1 X57.64 Y73.318 E36.59367
G1 X57.82 Y73.133 E36.60225
G1 X58.055 Y72.9 E36.61326
G1 X58.381 Y72.586 E36.62831
G1 X58.519 Y72.455 E36.63464
G1 X59.047 Y71.965 E36.6586
G1 X59.735 Y71.381 E36.68862
G1 F1500 E30.18862
;MESH:arduino case1.stl
G0 F6000 X81.129 Y85.692
G0 X81.238 Y85.699
G0 X81.731 Y85.922
G0 X81.758 Y86.113
G0 X143.838 Y127.641
G0 X141.96 Y127.612
G0 X143.207 Y129.448
G0 X144.862 Y131.468
;TYPE:WALL-INNER
G1 F1500 E36.68862
G1 F1200 X146.025 Y131.67 E36.72788
G1 X146.282 Y131.671 E36.73643
G1 X147.402 Y131.495 E36.77413
G1 X148.471 Y130.95 E36.81404
G1 X149.366 Y130.083 E36.85549
G1 X149.953 Y128.975 E36.89719
G1 X150.167 Y127.741 E36.93885
G1 X149.993 Y126.499 E36.98056
G1 X149.44 Y125.372 E37.02231
G1 X148.617 Y124.523 E37.06164
G1 X148.409 Y124.371 E37.07021
G1 X147.402 Y123.857 E37.10781
G1 X146.29 Y123.682 E37.14525
G1 X146.04 Y123.681 E37.15357
G1 X144.92 Y123.857 E37.19128
G1 X143.801 Y124.427 E37.23305
G1 X142.953 Y125.277 E37.27298
G1 X142.369 Y126.378 E37.31443
G1 X142.154 Y127.615 E37.35619
G1 X142.329 Y128.855 E37.39784
G1 X142.882 Y129.98 E37.43954
G1 X143.754 Y130.881 E37.48124
G1 X144.862 Y131.468 E37.52295
G0 F6000 X144.993 Y131.085
G1 F1200 X146.06 Y131.27 E37.55896
G1 X146.252 Y131.271 E37.56535
G1 X147.277 Y131.11 E37.59986
G1 X148.236 Y130.621 E37.63566
G1 X149.042 Y129.84 E37.67299
G1 X149.57 Y128.844 E37.71049
G1 X149.762 Y127.734 E37.74795
G1 X149.606 Y126.618 E37.78543
G1 X149.109 Y125.605 E37.82296
G1 X148.354 Y124.826 E37.85904
G1 X148.199 Y124.713 E37.86542
G1 X147.277 Y124.242 E37.89986
G1 X146.258 Y124.082 E37.93417
G1 X146.07 Y124.081 E37.94042
G1 X145.045 Y124.242 E37.97493
G1 X144.039 Y124.755 E38.01249
G1 X143.278 Y125.517 E38.04831
G1 X142.752 Y126.509 E38.08565
G1 X142.559 Y127.621 E38.12319
G1 X142.716 Y128.736 E38.16064
G1 X143.213 Y129.747 E38.19811
G1 X143.997 Y130.557 E38.2356
G1 X144.993 Y131.085 E38.2731
G0 F6000 X145.124 Y130.702
;TYPE:WALL-OUTER
G1 F1200 X146.096 Y130.87 E38.30591
G1 X146.222 Y130.871 E38.3101
G1 X147.152 Y130.725 E38.34141
G1 X148.001 Y130.292 E38.37311
G1 X148.718 Y129.597 E38.40632
G1 X149.187 Y128.713 E38.4396
G1 X149.357 Y127.727 E38.47288
G1 X149.219 Y126.737 E38.50613
G1 X148.778 Y125.838 E38.53943
G1 X148.091 Y125.129 E38.57227
G1 X147.989 Y125.055 E38.57646
G1 X147.152 Y124.627 E38.60772
G1 X146.225 Y124.482 E38.63893
G1 X146.1 Y124.481 E38.64309
G1 X145.17 Y124.627 E38.6744
G1 X144.277 Y125.083 E38.70775
G1 X143.603 Y125.757 E38.73945
G1 X143.135 Y126.64 E38.77269
G1 X142.964 Y127.627 E38.80601
G1 X143.103 Y128.617 E38.83926
G1 X143.544 Y129.514 E38.8725
G1 X144.24 Y130.233 E38.90579
G1 X145.124 Y130.702 E38.93907
G0 F6000 X144.982 Y131.118
G1 F1500 E32.43907
G0 F6000 X144.094 Y130.426
G0 X143.489 Y129.801
G0 X141.96 Y127.612
G0 X143.838 Y127.641
G0 X133.644 Y119.196
G0 X134.512 Y120.898
G0 X133.439 Y120.954
;TYPE:WALL-INNER
G1 F1500 E38.93907
G1 F1200 X134.423 Y120.722 E38.9727
G1 X135.04 Y120.189 E38.99981
G1 X135.423 Y119.493 E39.02624
G1 X135.471 Y118.663 E39.05389
G1 X135.137 Y117.784 E39.08516
G1 X134.563 Y117.229 E39.11172
G1 X133.987 Y116.973 E39.13268
G1 X133.026 Y116.949 E39.16466
G1 X132.295 Y117.305 E39.1917
G1 X131.79 Y117.829 E39.21591
G1 X131.531 Y118.401 E39.23679
G1 X131.481 Y119.233 E39.26451
G1 X131.954 Y120.273 E39.30251
G1 X132.661 Y120.76 E39.33107
G1 X133.439 Y120.954 E39.35773
G0 F6000 X133.442 Y120.542
G1 F1200 X134.236 Y120.355 E39.38487
G1 X134.724 Y119.933 E39.40632
G1 X135.029 Y119.379 E39.42736
G1 X135.067 Y118.725 E39.44915
G1 X134.795 Y118.01 E39.47459
G1 X134.336 Y117.566 E39.49583
G1 X133.897 Y117.371 E39.51181
G1 X133.114 Y117.351 E39.53786
G1 X132.534 Y117.634 E39.55932
G1 X132.126 Y118.057 E39.57887
G1 X131.926 Y118.499 E39.59501
G1 X131.886 Y119.158 E39.61696
G1 X132.272 Y120.006 E39.64795
G1 X132.828 Y120.389 E39.67041
G1 X133.442 Y120.542 E39.69146
G0 F6000 X133.445 Y120.13
;TYPE:WALL-OUTER
G1 F1200 X134.049 Y119.988 E39.71209
G1 X134.408 Y119.677 E39.72789
G1 X134.635 Y119.265 E39.74354
G1 X134.663 Y118.787 E39.75946
G1 X134.453 Y118.236 E39.77907
G1 X134.109 Y117.903 E39.795
G1 X133.807 Y117.769 E39.80599
G1 X133.201 Y117.753 E39.82615
G1 X132.773 Y117.962 E39.84199
G1 X132.462 Y118.285 E39.8569
G1 X132.321 Y118.597 E39.86829
G1 X132.291 Y119.083 E39.88449
G1 X132.59 Y119.739 E39.90847
G1 X132.995 Y120.018 E39.92482
G1 X133.445 Y120.13 E39.94025
G0 F6000 X133.443 Y120.57
G1 F1500 E33.44025
G0 F6000 X134.161 Y120.206
G0 X134.597 Y119.83
G0 X134.87 Y119.333
G0 X134.897 Y118.862
G0 X134.671 Y117.068
G0 X133.62 Y118.631
G0 X145.168 Y97.936
G0 X144.038 Y99.437
G0 X145.263 Y99.868
;TYPE:WALL-INNER
G1 F1500 E39.94025
G1 F1200 X146.497 Y100.082 E39.9819
G1 X147.739 Y99.908 E40.02361
G1 X148.865 Y99.356 E40.06532
G1 X149.766 Y98.483 E40.10705
G1 X150.353 Y97.376 E40.14873
G1 X150.568 Y96.138 E40.19052
G1 X150.393 Y94.897 E40.2322
G1 X149.84 Y93.773 E40.27387
G1 X148.968 Y92.871 E40.31559
G1 X147.86 Y92.285 E40.35728
G1 X146.698 Y92.082 E40.39652
G1 X146.44 Y92.081 E40.4051
G1 X145.32 Y92.258 E40.44281
G1 X144.251 Y92.802 E40.48271
G1 X143.356 Y93.67 E40.52417
G1 X142.769 Y94.777 E40.56585
G1 X142.555 Y96.012 E40.60754
G1 X142.729 Y97.255 E40.64928
G1 X143.282 Y98.38 E40.69098
G1 X144.154 Y99.282 E40.7327
G1 X145.263 Y99.868 E40.77442
G0 F6000 X145.394 Y99.485
