;FLAVOR:Marlin
;TIME:15438
;Filament used: 12.6513m
;Layer height: 0.24
;MINX:34.7
;MINY:28.85
;MINZ:0.2
;MAXX:185.3
;MAXY:189.85
;MAXZ:14.36
;Generated with Cura_SteamEngine 4.4.1
M140 S60
M105
M190 S60
M104 S200
M105
M109 S200
M82 ;absolute extrusion mode
M201 X500.00 Y500.00 Z100.00 E5000.00 ;Setup machine max acceleration
M203 X500.00 Y500.00 Z10.00 E50.00 ;Setup machine max feedrate
M204 P500.00 R1000.00 T500.00 ;Setup Print/Retract/Travel acceleration
M205 X8.00 Y8.00 Z0.40 E5.00 ;Setup Jerk
M220 S100 ;Reset Feedrate
M221 S100 ;Reset Flowrate

G28 ;Home

G92 E0 ;Reset Extruder
G1 Z2.0 F3000 ;Move Z Axis up
G1 X10.1 Y20 Z0.28 F5000.0 ;Move to start position
G1 X10.1 Y200.0 Z0.28 F1500.0 E15 ;Draw the first line
G1 X10.4 Y200.0 Z0.28 F5000.0 ;Move to side a little
G1 X10.4 Y20 Z0.28 F1500.0 E30 ;Draw the second line
G92 E0 ;Reset Extruder
G1 Z2.0 F3000 ;Move Z Axis up

G92 E0
G92 E0
G1 F1500 E-6.5
;LAYER_COUNT:60
;LAYER:0
M107
G0 F6000 X55.277 Y35.335 Z0.2
;TYPE:SKIRT
G1 F1500 E0
G1 F1200 X55.782 Y34.544 E0.03121
G1 X56.353 Y33.8 E0.06241
G1 X56.853 Y33.242 E0.08733
G1 X57.043 Y33.044 E0.09645
G1 X57.35 Y32.736 E0.11092
G1 X57.673 Y32.425 E0.12583
G1 X57.816 Y32.29 E0.13237
G1 X58.337 Y31.806 E0.15602
G1 X59.051 Y31.197 E0.18724
G1 X59.814 Y30.652 E0.21842
G1 X60.621 Y30.174 E0.24962
G1 X61.465 Y29.766 E0.2808
G1 X62.341 Y29.431 E0.31199
G1 X63.243 Y29.172 E0.34321
G1 X64.163 Y28.991 E0.37439
G1 X65.095 Y28.889 E0.40557
G1 X65.577 Y28.868 E0.42162
G1 X66.155 Y28.855 E0.44085
G1 X66.382 Y28.852 E0.4484
G1 X66.939 Y28.851 E0.46693
G1 X117.951 Y28.851 E2.16359
G1 X153.111 Y28.85 E3.33302
G1 X153.269 Y28.851 E3.33827
G1 X153.965 Y28.861 E3.36143
G1 X154.901 Y28.915 E3.39261
G1 X155.83 Y29.048 E3.42382
G1 X156.743 Y29.259 E3.45499
G1 X157.636 Y29.548 E3.48621
G1 X158.5 Y29.911 E3.51738
G1 X158.933 Y30.127 E3.53347
G1 X159.421 Y30.384 E3.55182
G1 X159.655 Y30.511 E3.56067
G1 X161.028 Y31.277 E3.61296
G1 X163.241 Y32.431 E3.69597
G1 X165.531 Y33.545 E3.78067
G1 X167.803 Y34.57 E3.86358
G1 X170.123 Y35.541 E3.94723
G1 X172.534 Y36.472 E4.03319
G1 X174.839 Y37.283 E4.11446
G1 X177.633 Y38.178 E4.21204
G1 X178.513 Y38.502 E4.24323
G1 X179.363 Y38.9 E4.27444
G1 X180.175 Y39.369 E4.30563
G1 X180.944 Y39.905 E4.33681
G1 X181.665 Y40.505 E4.36801
G1 X182.333 Y41.164 E4.39922
G1 X182.941 Y41.877 E4.43038
G1 X183.487 Y42.64 E4.46159
G1 X183.966 Y43.446 E4.49277
G1 X184.374 Y44.291 E4.52398
G1 X184.709 Y45.167 E4.55518
G1 X184.968 Y46.068 E4.58636
G1 X185.149 Y46.988 E4.61754
G1 X185.246 Y47.848 E4.64633
G1 X185.27 Y48.175 E4.65723
G1 X185.3 Y48.98 E4.68403
G1 X185.3 Y67.943 E5.31474
G1 X185.299 Y68.101 E5.31999
G1 X185.289 Y68.799 E5.34321
G1 X185.235 Y69.735 E5.3744
G1 X185.047 Y70.942 E5.41502
G1 X184.789 Y72.148 E5.45604
G1 X184.292 Y74.63 E5.54023
G1 X183.873 Y77.079 E5.62287
G1 X183.512 Y79.616 E5.7081
G1 X183.231 Y82.096 E5.79112
G1 X183.017 Y84.612 E5.8751
G1 X182.876 Y87.128 E5.95891
G1 X182.805 Y89.652 E6.0429
G1 X182.805 Y92.177 E6.12688
G1 X182.876 Y94.672 E6.2099
G1 X183.018 Y97.174 E6.29325
G1 X183.235 Y99.705 E6.37774
G1 X183.518 Y102.189 E6.46089
G1 X183.872 Y104.679 E6.54454
G1 X184.308 Y107.22 E6.63029
G1 X184.685 Y109.142 E6.69543
G1 X184.826 Y110.069 E6.72662
G1 X184.887 Y110.951 E6.75603
G1 X184.896 Y111.272 E6.76671
G1 X184.9 Y111.58 E6.77695
G1 X184.9 Y130.525 E7.40706
G1 X184.899 Y130.679 E7.41219
G1 X184.889 Y131.395 E7.436
G1 X184.836 Y132.331 E7.46718
G1 X184.703 Y133.259 E7.49836
G1 X184.492 Y134.173 E7.52956
G1 X184.204 Y135.066 E7.56077
G1 X183.84 Y135.93 E7.59195
G1 X183.405 Y136.761 E7.62315
G1 X182.9 Y137.551 E7.65434
G1 X182.33 Y138.296 E7.68554
G1 X181.985 Y138.689 E7.70293
G1 X181.663 Y139.039 E7.71875
G1 X181.519 Y139.193 E7.72576
G1 X180.269 Y140.501 E7.78594
G1 X178.578 Y142.37 E7.86977
G1 X176.955 Y144.272 E7.95293
G1 X175.378 Y146.227 E8.03647
G1 X173.852 Y148.234 E8.12033
G1 X172.375 Y150.293 E8.20461
G1 X170.964 Y152.383 E8.28848
G1 X169.62 Y154.503 E8.37197
G1 X168.344 Y156.648 E8.45498
G1 X167.106 Y158.867 E8.53949
G1 X165.95 Y161.083 E8.62262
G1 X164.714 Y163.635 E8.71693
G1 X164.269 Y164.461 E8.74814
G1 X163.756 Y165.246 E8.77933
G1 X162.895 Y166.303 E8.82467
G1 X162.75 Y166.46 E8.83178
G1 X162.49 Y166.732 E8.8443
G1 X162.13 Y167.096 E8.86132
G1 X161.974 Y167.251 E8.86864
G1 X161.484 Y167.727 E8.89136
G1 X160.784 Y168.351 E8.92255
G1 X160.033 Y168.914 E8.95377
G1 X159.237 Y169.41 E8.98496
G1 X158.402 Y169.837 E9.01615
G1 X157.303 Y170.271 E9.05545
G1 X156.704 Y170.471 E9.07646
G1 X156.516 Y170.532 E9.08303
G1 X155.173 Y170.954 E9.12985
G1 X152.8 Y171.774 E9.21336
G1 X150.398 Y172.68 E9.29874
G1 X148.127 Y173.612 E9.38039
G1 X145.817 Y174.638 E9.46446
G1 X143.53 Y175.73 E9.54875
G1 X141.314 Y176.868 E9.63161
G1 X139.094 Y178.087 E9.71584
G1 X136.895 Y179.378 E9.80066
G1 X134.814 Y180.679 E9.88228
G1 X132.694 Y182.09 E9.96698
G1 X130.631 Y183.549 E10.05103
G1 X128.62 Y185.058 E10.13465
G1 X126.651 Y186.625 E10.21835
G1 X126.377 Y186.854 E10.23022
G1 X126.235 Y186.971 E10.23634
G1 X125.716 Y187.391 E10.25855
G1 X124.962 Y187.949 E10.28975
G1 X124.164 Y188.441 E10.32093
G1 X123.326 Y188.864 E10.35215
G1 X122.456 Y189.213 E10.38333
G1 X121.559 Y189.487 E10.41452
G1 X120.642 Y189.684 E10.44572
G1 X119.712 Y189.802 E10.4769
G1 X119.133 Y189.835 E10.49619
G1 X118.807 Y189.845 E10.50703
G1 X118.47 Y189.85 E10.51824
G1 X99.507 Y189.85 E11.14896
G1 X99.35 Y189.849 E11.15418
G1 X98.649 Y189.839 E11.1775
G1 X97.713 Y189.786 E11.20868
G1 X96.784 Y189.653 E11.23989
G1 X95.871 Y189.441 E11.27106
G1 X94.978 Y189.153 E11.30227
G1 X94.114 Y188.789 E11.33346
G1 X93.283 Y188.353 E11.36467
G1 X92.493 Y187.848 E11.39585
G1 X91.796 Y187.317 E11.425
G1 X91.27 Y186.882 E11.4477
G1 X91.134 Y186.768 E11.4536
G1 X90.154 Y185.931 E11.49647
G1 X88.191 Y184.347 E11.58036
G1 X86.202 Y182.835 E11.66346
G1 X84.152 Y181.363 E11.7474
G1 X82.083 Y179.966 E11.83043
G1 X79.939 Y178.605 E11.9149
G1 X77.757 Y177.305 E11.99937
G1 X75.583 Y176.092 E12.08218
G1 X73.359 Y174.932 E12.1656
G1 X71.069 Y173.818 E12.2503
G1 X68.797 Y172.793 E12.33321
G1 X66.477 Y171.822 E12.41685
G1 X64.076 Y170.895 E12.50246
G1 X62.681 Y170.405 E12.55163
G1 X62.514 Y170.345 E12.55754
G1 X62.022 Y170.163 E12.57498
G1 X61.157 Y169.8 E12.60618
G1 X60.326 Y169.365 E12.63738
G1 X59.535 Y168.861 E12.66858
G1 X58.524 Y168.062 E12.71144
G1 X58.36 Y167.916 E12.71874
G1 X57.993 Y167.574 E12.73542
G1 X57.789 Y167.375 E12.7449
G1 X57.608 Y167.195 E12.75339
G1 X56.966 Y166.539 E12.78392
G1 X56.34 Y165.841 E12.81511
G1 X55.774 Y165.093 E12.8463
G1 X55.275 Y164.299 E12.8775
G1 X54.974 Y163.733 E12.89882
G1 X54.658 Y163.096 E12.92247
G1 X53.446 Y160.738 E13.01065
G1 X52.236 Y158.537 E13.09419
G1 X50.967 Y156.378 E13.17748
G1 X49.632 Y154.246 E13.26115
G1 X48.234 Y152.149 E13.34497
G1 X46.756 Y150.061 E13.43006
G1 X45.279 Y148.094 E13.51187
G1 X43.699 Y146.112 E13.59617
G1 X42.07 Y144.181 E13.6802
G1 X40.392 Y142.304 E13.76394
G1 X38.65 Y140.46 E13.84831
G1 X38.289 Y140.097 E13.86534
G1 X38.153 Y139.958 E13.87181
G1 X37.779 Y139.568 E13.88978
G1 X37.159 Y138.864 E13.92098
G1 X36.601 Y138.109 E13.95221
G1 X36.11 Y137.31 E13.9834
G1 X35.689 Y136.473 E14.01456
G1 X35.34 Y135.602 E14.04577
G1 X35.067 Y134.705 E14.07695
G1 X34.872 Y133.787 E14.10817
G1 X34.734 Y132.546 E14.1497
G1 X34.716 Y132.212 E14.16082
G1 X34.7 Y131.62 E14.18052
G1 X34.7 Y112.633 E14.81203
G1 X34.701 Y112.47 E14.81745
G1 X34.711 Y111.796 E14.83987
G1 X34.765 Y110.859 E14.87109
G1 X34.899 Y109.931 E14.90227
G1 X35.111 Y109.018 E14.93345
G1 X35.4 Y108.125 E14.96466
G1 X35.764 Y107.261 E14.99585
G1 X36.2 Y106.431 E15.02703
G1 X36.657 Y105.711 E15.05539
G1 X37.147 Y105.001 E15.08409
G1 X37.259 Y104.842 E15.09056
G1 X37.827 Y104.049 E15.123
G1 X39.253 Y101.935 E15.20781
G1 X40.601 Y99.814 E15.2914
G1 X41.881 Y97.664 E15.37462
G1 X43.112 Y95.456 E15.4587
G1 X44.275 Y93.225 E15.54238
G1 X45.375 Y90.963 E15.62604
G1 X46.408 Y88.672 E15.70963
G1 X47.398 Y86.305 E15.79496
G1 X48.281 Y84.004 E15.87694
G1 X49.119 Y81.63 E15.96067
G1 X49.895 Y79.214 E16.04507
G1 X50.59 Y76.818 E16.12805
G1 X51.223 Y74.384 E16.21169
G1 X51.8 Y71.88 E16.29716
G1 X52.285 Y69.451 E16.37954
G1 X52.705 Y66.99 E16.46258
G1 X53.064 Y64.462 E16.54751
G1 X53.347 Y61.972 E16.63086
G1 X53.557 Y59.48 E16.71403
G1 X53.697 Y56.993 E16.79688
G1 X53.78 Y53.07 E16.92739
G1 X53.78 Y41.556 E17.31035
G1 X53.781 Y41.398 E17.3156
G1 X53.791 Y40.7 E17.33882
G1 X53.845 Y39.764 E17.37001
G1 X53.977 Y38.836 E17.40118
G1 X54.189 Y37.922 E17.43239
G1 X54.478 Y37.03 E17.46358
G1 X54.841 Y36.165 E17.49478
G1 X55.277 Y35.335 E17.52596
G0 F6000 X55.674 Y35.448
G1 F1200 X56.178 Y34.678 E17.55657
G1 X56.747 Y33.954 E17.58719
G1 X57.142 Y33.519 E17.60674
G1 X57.332 Y33.321 E17.61586
G1 X57.628 Y33.024 E17.62981
G1 X57.951 Y32.713 E17.64472
G1 X58.089 Y32.583 E17.65103
G1 X58.61 Y32.099 E17.67468
G1 X59.311 Y31.502 E17.70531
G1 X60.061 Y30.969 E17.73591
G1 X60.855 Y30.502 E17.76655
G1 X61.686 Y30.106 E17.79716
G1 X62.548 Y29.784 E17.82777
G1 X63.435 Y29.538 E17.85839
G1 X64.34 Y29.369 E17.88901
G1 X65.586 Y29.268 E17.93058
G1 X66.164 Y29.255 E17.94981
G1 X66.383 Y29.252 E17.9571
G1 X66.94 Y29.251 E17.97562
G1 X117.951 Y29.251 E19.67226
G1 X153.111 Y29.25 E20.84168
G1 X153.263 Y29.251 E20.84674
G1 X153.959 Y29.261 E20.86989
G1 X154.878 Y29.314 E20.90051
G1 X155.789 Y29.447 E20.93113
G1 X156.686 Y29.658 E20.96178
G1 X157.56 Y29.947 E20.99239
G1 X158.746 Y30.481 E21.03565
G1 X159.234 Y30.738 E21.054
G1 X159.46 Y30.861 E21.06256
G1 X160.8 Y31.609 E21.1136
G1 X163.088 Y32.802 E21.19942
G1 X165.328 Y33.892 E21.28228
G1 X167.663 Y34.946 E21.36748
G1 X170.004 Y35.925 E21.45188
G1 X172.354 Y36.832 E21.53566
G1 X174.732 Y37.668 E21.6195
G1 X177.511 Y38.559 E21.71656
G1 X178.375 Y38.878 E21.7472
G1 X179.208 Y39.27 E21.77782
G1 X180.003 Y39.733 E21.80842
G1 X180.756 Y40.264 E21.83906
G1 X181.459 Y40.858 E21.86967
G1 X182.108 Y41.511 E21.90029
G1 X182.699 Y42.217 E21.93092
G1 X183.225 Y42.972 E21.96152
G1 X183.684 Y43.77 E21.99214
G1 X184.073 Y44.605 E22.02278
G1 X184.387 Y45.47 E22.05339
G1 X184.625 Y46.36 E22.08403
G1 X184.785 Y47.266 E22.11463
G1 X184.848 Y47.877 E22.13506
G1 X184.872 Y48.204 E22.14596
G1 X184.9 Y48.98 E22.17179
G1 X184.9 Y67.943 E22.8025
G1 X184.899 Y68.095 E22.80756
G1 X184.889 Y68.793 E22.83078
G1 X184.836 Y69.712 E22.86139
G1 X184.655 Y70.858 E22.89998
G1 X184.415 Y71.979 E22.93811
G1 X183.9 Y74.55 E23.02532
G1 X183.476 Y77.027 E23.1089
G1 X183.112 Y79.586 E23.19487
G1 X182.832 Y82.053 E23.27745
G1 X182.617 Y84.589 E23.3621
G1 X182.476 Y87.095 E23.44559
G1 X182.405 Y89.641 E23.5303
G1 X182.405 Y92.154 E23.61388
G1 X182.478 Y94.705 E23.69876
G1 X182.621 Y97.232 E23.78295
G1 X182.833 Y99.713 E23.86576
G1 X183.123 Y102.254 E23.95083
G1 X183.477 Y104.737 E24.03425
G1 X183.912 Y107.278 E24.11999
G1 X184.293 Y109.219 E24.18578
G1 X184.431 Y110.129 E24.21639
G1 X184.487 Y110.962 E24.24416
G1 X184.496 Y111.283 E24.25484
G1 X184.5 Y111.58 E24.26472
G1 X184.5 Y130.525 E24.89483
G1 X184.499 Y130.673 E24.89976
G1 X184.489 Y131.389 E24.92357
G1 X184.436 Y132.308 E24.95419
G1 X184.304 Y133.219 E24.98481
G1 X184.093 Y134.115 E25.01542
G1 X183.805 Y134.99 E25.04606
G1 X183.442 Y135.836 E25.07668
G1 X183.007 Y136.648 E25.10732
G1 X182.504 Y137.418 E25.13791
G1 X181.691 Y138.418 E25.18077
G1 X181.369 Y138.768 E25.19659
G1 X181.23 Y138.916 E25.20335
G1 X179.965 Y140.239 E25.26423
G1 X178.293 Y142.088 E25.34714
G1 X176.638 Y144.027 E25.43193
G1 X175.052 Y145.994 E25.51597
G1 X173.528 Y147.998 E25.59971
G1 X172.063 Y150.041 E25.68332
G1 X170.622 Y152.176 E25.76899
G1 X169.298 Y154.264 E25.85123
G1 X167.985 Y156.47 E25.93661
G1 X166.76 Y158.666 E26.02024
G1 X165.587 Y160.917 E26.10467
G1 X164.354 Y163.461 E26.1987
G1 X163.917 Y164.271 E26.22931
G1 X163.411 Y165.041 E26.25995
G1 X162.601 Y166.032 E26.30252
G1 X162.456 Y166.189 E26.30963
G1 X162.206 Y166.451 E26.32168
G1 X161.846 Y166.815 E26.3387
G1 X161.695 Y166.964 E26.34576
G1 X161.205 Y167.44 E26.36848
G1 X160.517 Y168.052 E26.39911
G1 X159.779 Y168.603 E26.42974
G1 X158.996 Y169.087 E26.46036
G1 X158.174 Y169.501 E26.49097
G1 X157.176 Y169.891 E26.52661
G1 X156.577 Y170.091 E26.54761
G1 X156.396 Y170.15 E26.55394
G1 X155.059 Y170.57 E26.60055
G1 X152.633 Y171.408 E26.68592
G1 X150.283 Y172.295 E26.76946
G1 X147.979 Y173.241 E26.8523
G1 X145.645 Y174.277 E26.93724
G1 X143.355 Y175.371 E27.02165
G1 X141.118 Y176.519 E27.10528
G1 X138.89 Y177.743 E27.18983
G1 X136.702 Y179.027 E27.2742
G1 X134.586 Y180.35 E27.35721
G1 X132.463 Y181.763 E27.44203
G1 X130.406 Y183.218 E27.52583
G1 X128.377 Y184.741 E27.61021
G1 X126.385 Y186.325 E27.69486
G1 X126.12 Y186.547 E27.70636
G1 X125.983 Y186.66 E27.71226
G1 X125.464 Y187.08 E27.73447
G1 X124.724 Y187.627 E27.76508
G1 X123.939 Y188.109 E27.79571
G1 X123.115 Y188.52 E27.82634
G1 X122.259 Y188.858 E27.85695
G1 X121.377 Y189.121 E27.88756
G1 X120.475 Y189.306 E27.91819
G1 X119.121 Y189.435 E27.96343
G1 X118.795 Y189.445 E27.97427
G1 X118.47 Y189.45 E27.98508
G1 X99.507 Y189.45 E28.6158
G1 X99.356 Y189.449 E28.62082
G1 X98.655 Y189.439 E28.64414
G1 X97.736 Y189.386 E28.67475
G1 X96.825 Y189.253 E28.70537
G1 X95.929 Y189.042 E28.73599
G1 X95.054 Y188.754 E28.76663
G1 X94.208 Y188.391 E28.79725
G1 X93.397 Y187.956 E28.82786
G1 X92.626 Y187.452 E28.85849
G1 X92.051 Y187.009 E28.88264
G1 X91.525 Y186.574 E28.90534
G1 X91.394 Y186.464 E28.91103
G1 X90.42 Y185.631 E28.95365
G1 X88.438 Y184.033 E29.03833
G1 X86.432 Y182.507 E29.12216
G1 X84.363 Y181.023 E29.20685
G1 X82.3 Y179.629 E29.28966
G1 X80.153 Y178.266 E29.37425
G1 X77.977 Y176.97 E29.45848
G1 X75.784 Y175.746 E29.54202
G1 X73.512 Y174.561 E29.62724
G1 X71.272 Y173.471 E29.7101
G1 X68.937 Y172.417 E29.79531
G1 X66.596 Y171.438 E29.8797
G1 X64.245 Y170.531 E29.96351
G1 X62.814 Y170.028 E30.01396
G1 X62.652 Y169.97 E30.01969
G1 X62.16 Y169.788 E30.03714
G1 X61.312 Y169.431 E30.06774
G1 X60.497 Y169.002 E30.09837
G1 X59.723 Y168.504 E30.12898
G1 X58.79 Y167.763 E30.16861
G1 X58.626 Y167.617 E30.17591
G1 X58.272 Y167.288 E30.19199
G1 X58.068 Y167.089 E30.20147
G1 X57.894 Y166.915 E30.20965
G1 X57.252 Y166.259 E30.24018
G1 X56.638 Y165.574 E30.27078
G1 X56.085 Y164.838 E30.30139
G1 X55.598 Y164.056 E30.33204
G1 X55.332 Y163.555 E30.3509
G1 X55 Y162.886 E30.37574
G1 X53.809 Y160.569 E30.46239
G1 X52.573 Y158.321 E30.54772
G1 X51.318 Y156.185 E30.63011
G1 X49.961 Y154.018 E30.71515
G1 X48.561 Y151.918 E30.7991
G1 X47.104 Y149.858 E30.88302
G1 X45.579 Y147.829 E30.96744
G1 X44.007 Y145.856 E31.05135
G1 X42.363 Y143.908 E31.13613
G1 X40.699 Y142.046 E31.21918
G1 X38.942 Y140.187 E31.30426
G1 X38.572 Y139.815 E31.32171
G1 X38.441 Y139.681 E31.32794
G1 X38.067 Y139.291 E31.34592
G1 X37.46 Y138.599 E31.37653
G1 X36.914 Y137.858 E31.40715
G1 X36.435 Y137.071 E31.43779
G1 X36.026 Y136.247 E31.46838
G1 X35.69 Y135.389 E31.49903
G1 X35.43 Y134.506 E31.52965
G1 X35.247 Y133.604 E31.56026
G1 X35.133 Y132.524 E31.59638
G1 X35.115 Y132.19 E31.6075
G1 X35.1 Y131.62 E31.62647
G1 X35.1 Y112.633 E32.25798
G1 X35.101 Y112.476 E32.2632
G1 X35.111 Y111.802 E32.28562
G1 X35.165 Y110.883 E32.31624
G1 X35.298 Y109.972 E32.34686
G1 X35.51 Y109.076 E32.37749
G1 X35.798 Y108.201 E32.40812
G1 X36.162 Y107.356 E32.43873
G1 X36.597 Y106.544 E32.46936
G1 X36.986 Y105.938 E32.49331
G1 X37.476 Y105.228 E32.52201
G1 X37.584 Y105.075 E32.52824
G1 X38.168 Y104.26 E32.56158
G1 X39.579 Y102.168 E32.64551
G1 X40.933 Y100.037 E32.72949
G1 X42.246 Y97.832 E32.81484
G1 X43.443 Y95.685 E32.8966
G1 X44.646 Y93.378 E32.98314
G1 X45.735 Y91.136 E33.06604
G1 X46.776 Y88.828 E33.15025
G1 X47.76 Y86.478 E33.23499
G1 X48.66 Y84.132 E33.31856
G1 X49.501 Y81.748 E33.40264
G1 X50.274 Y79.342 E33.48669
G1 X50.982 Y76.901 E33.57123
G1 X51.616 Y74.461 E33.65508
G1 X52.188 Y71.976 E33.73989
G1 X52.676 Y69.531 E33.82281
G1 X53.101 Y67.042 E33.9068
G1 X53.464 Y64.492 E33.99246
G1 X53.745 Y62.015 E34.07538
G1 X53.957 Y59.503 E34.15923
G1 X54.097 Y57.023 E34.24184
G1 X54.18 Y53.079 E34.37305
G1 X54.18 Y41.556 E34.75631
G1 X54.181 Y41.404 E34.76136
G1 X54.191 Y40.706 E34.78458
