;FLAVOR:Marlin
;TIME:3659
;Filament used: 2.13362m
;Layer height: 0.2
;MINX:71.45
;MINY:48.3
;MINZ:0.2
;MAXX:148.55
;MAXY:171.6
;MAXZ:10
;Generated with Cura_SteamEngine 4.4.1
M140 S60
M105
M190 S60
M104 S200
M105
M109 S200
M82 ;absolute extrusion mode
M201 X500.00 Y500.00 Z100.00 E5000.00 ;Setup machine max acceleration
M203 X500.00 Y500.00 Z10.00 E50.00 ;Setup machine max feedrate
M204 P500.00 R1000.00 T500.00 ;Setup Print/Retract/Travel acceleration
M205 X8.00 Y8.00 Z0.40 E5.00 ;Setup Jerk
M220 S100 ;Reset Feedrate
M221 S100 ;Reset Flowrate

G28 ;Home

G92 E0 ;Reset Extruder
G1 Z2.0 F3000 ;Move Z Axis up
G1 X10.1 Y20 Z0.28 F5000.0 ;Move to start position
G1 X10.1 Y200.0 Z0.28 F1500.0 E15 ;Draw the first line
G1 X10.4 Y200.0 Z0.28 F5000.0 ;Move to side a little
G1 X10.4 Y20 Z0.28 F1500.0 E30 ;Draw the second line
G92 E0 ;Reset Extruder
G1 Z2.0 F3000 ;Move Z Axis up

G92 E0
G92 E0
G1 F1500 E-6.5
;LAYER_COUNT:50
;LAYER:0
M107
G0 F6000 X94.222 Y54.191 Z0.2
;TYPE:SKIRT
G1 F1500 E0
G1 F1200 X94.693 Y53.38 E0.03119
G1 X95.232 Y52.612 E0.0624
G1 X95.835 Y51.893 E0.09361
G1 X96.496 Y51.228 E0.1248
G1 X97.211 Y50.622 E0.15597
G1 X97.976 Y50.079 E0.18717
G1 X98.784 Y49.603 E0.21836
G1 X99.63 Y49.197 E0.24957
G1 X100.507 Y48.865 E0.28076
G1 X101.409 Y48.609 E0.31195
G1 X102.33 Y48.431 E0.34315
G1 X103.617 Y48.315 E0.38613
G1 X103.939 Y48.305 E0.39684
G1 X104.28 Y48.3 E0.40818
G1 X115.243 Y48.3 E0.77282
G1 X115.4 Y48.301 E0.77804
G1 X116.101 Y48.311 E0.80136
G1 X117.037 Y48.364 E0.83254
G1 X117.966 Y48.497 E0.86375
G1 X118.879 Y48.709 E0.89492
G1 X119.772 Y48.997 E0.92613
G1 X120.636 Y49.361 E0.95732
G1 X121.467 Y49.797 E0.98853
G1 X122.257 Y50.302 E1.01971
G1 X123.001 Y50.872 E1.05089
G1 X123.694 Y51.504 E1.08208
G1 X124.331 Y52.193 E1.11329
G1 X124.907 Y52.933 E1.14448
G1 X125.418 Y53.72 E1.17569
G1 X125.859 Y54.547 E1.20686
G1 X126.229 Y55.409 E1.23806
G1 X126.524 Y56.299 E1.26925
G1 X126.667 Y56.855 E1.28834
G1 X126.876 Y57.768 E1.31949
G1 X127.487 Y60.255 E1.40467
G1 X128.156 Y62.68 E1.48834
G1 X128.894 Y65.083 E1.57195
G1 X129.697 Y67.461 E1.65543
G1 X130.573 Y69.829 E1.73941
G1 X131.517 Y72.175 E1.82351
G1 X132.522 Y74.483 E1.90724
G1 X133.584 Y76.744 E1.99032
G1 X134.727 Y79.01 E2.07474
G1 X135.912 Y81.204 E2.15767
G1 X137.185 Y83.406 E2.24227
G1 X138.482 Y85.509 E2.32445
G1 X139.896 Y87.665 E2.4102
G1 X141.311 Y89.696 E2.49253
G1 X142.826 Y91.742 E2.57721
G1 X144.367 Y93.706 E2.66024
G1 X146.003 Y95.677 E2.74543
G1 X146.571 Y96.423 E2.77662
G1 X147.073 Y97.215 E2.80781
G1 X147.506 Y98.047 E2.839
G1 X147.866 Y98.913 E2.8702
G1 X148.152 Y99.807 E2.90142
G1 X148.36 Y100.721 E2.93259
G1 X148.489 Y101.65 E2.96379
G1 X148.535 Y102.367 E2.98768
G1 X148.545 Y102.693 E2.99853
G1 X148.55 Y103.03 E3.00974
G1 X148.55 Y116.974 E3.47352
G1 X148.549 Y117.127 E3.47861
G1 X148.539 Y117.844 E3.50246
G1 X148.486 Y118.781 E3.53367
G1 X148.353 Y119.709 E3.56486
G1 X148.142 Y120.623 E3.59605
G1 X147.854 Y121.515 E3.62723
G1 X147.49 Y122.38 E3.65844
G1 X147.055 Y123.211 E3.68964
G1 X146.55 Y124.001 E3.72083
G1 X146.033 Y124.682 E3.74926
G1 X145.409 Y125.44 E3.78192
G1 X145.272 Y125.603 E3.789
G1 X144.867 Y126.076 E3.80971
G1 X143.262 Y128.065 E3.89472
G1 X141.76 Y130.038 E3.97719
G1 X140.29 Y132.085 E4.06101
G1 X138.872 Y134.184 E4.14526
G1 X137.542 Y136.278 E4.22777
G1 X136.235 Y138.47 E4.31265
G1 X135.004 Y140.674 E4.39662
G1 X133.852 Y142.881 E4.47942
G1 X132.734 Y145.18 E4.56445
G1 X131.711 Y147.444 E4.64708
G1 X130.724 Y149.799 E4.73201
G1 X129.839 Y152.1 E4.81401
G1 X128.99 Y154.501 E4.89871
G1 X128.222 Y156.889 E4.98214
G1 X127.521 Y159.297 E5.06556
G1 X126.87 Y161.799 E5.15154
G1 X126.531 Y163.189 E5.19913
G1 X126.27 Y164.09 E5.23033
G1 X125.934 Y164.965 E5.2615
G1 X125.524 Y165.809 E5.29271
G1 X125.044 Y166.614 E5.32389
G1 X124.497 Y167.376 E5.35508
G1 X123.887 Y168.089 E5.38629
G1 X123.219 Y168.747 E5.41748
G1 X122.497 Y169.345 E5.44866
G1 X121.726 Y169.88 E5.47987
G1 X120.913 Y170.348 E5.51107
G1 X120.063 Y170.744 E5.54226
G1 X119.183 Y171.067 E5.57344
G1 X118.278 Y171.313 E5.60463
G1 X117.355 Y171.482 E5.63584
G1 X116.319 Y171.576 E5.67044
G1 X115.996 Y171.59 E5.68119
G1 X115.52 Y171.6 E5.69703
G1 X104.557 Y171.6 E6.06166
G1 X104.399 Y171.599 E6.06692
G1 X103.701 Y171.589 E6.09013
G1 X102.765 Y171.535 E6.12132
G1 X101.837 Y171.403 E6.15249
G1 X100.923 Y171.191 E6.1837
G1 X100.031 Y170.902 E6.21489
G1 X99.166 Y170.539 E6.24609
G1 X98.336 Y170.103 E6.27727
G1 X97.545 Y169.598 E6.30848
G1 X96.801 Y169.027 E6.33968
G1 X96.108 Y168.395 E6.37087
G1 X95.471 Y167.707 E6.40206
G1 X94.896 Y166.966 E6.43325
G1 X94.385 Y166.18 E6.46443
G1 X93.943 Y165.352 E6.49565
G1 X93.574 Y164.49 E6.52684
G1 X93.279 Y163.6 E6.55802
G1 X93.147 Y163.091 E6.57551
G1 X93.002 Y162.47 E6.59672
G1 X92.397 Y160.01 E6.68098
G1 X91.726 Y157.581 E6.7648
G1 X90.98 Y155.151 E6.84934
G1 X90.179 Y152.783 E6.93248
G1 X89.314 Y150.444 E7.01543
G1 X88.362 Y148.078 E7.10025
G1 X87.357 Y145.77 E7.18398
G1 X86.289 Y143.496 E7.26754
G1 X85.15 Y141.241 E7.35157
G1 X83.969 Y139.055 E7.43421
G1 X82.697 Y136.857 E7.51867
G1 X81.395 Y134.745 E7.60119
G1 X79.991 Y132.604 E7.68635
G1 X78.561 Y130.554 E7.76948
G1 X77.045 Y128.504 E7.85428
G1 X75.509 Y126.548 E7.937
G1 X74.246 Y125.03 E8.00268
G1 X74.152 Y124.915 E8.00762
G1 X73.91 Y124.616 E8.02041
G1 X73.351 Y123.863 E8.0516
G1 X72.859 Y123.065 E8.08279
G1 X72.437 Y122.227 E8.11399
G1 X72.087 Y121.357 E8.14518
G1 X71.813 Y120.46 E8.17638
G1 X71.616 Y119.543 E8.20757
G1 X71.498 Y118.613 E8.23875
G1 X71.465 Y118.033 E8.25808
G1 X71.455 Y117.707 E8.26892
G1 X71.45 Y117.37 E8.28013
G1 X71.45 Y103.407 E8.74454
G1 X71.451 Y103.249 E8.7498
G1 X71.461 Y102.551 E8.77302
G1 X71.515 Y101.615 E8.8042
G1 X71.647 Y100.687 E8.83538
G1 X71.859 Y99.773 E8.86658
G1 X72.148 Y98.881 E8.89777
G1 X72.511 Y98.016 E8.92897
G1 X72.947 Y97.186 E8.96015
G1 X73.452 Y96.395 E8.99137
G1 X73.978 Y95.705 E9.02022
G1 X74.663 Y94.875 E9.05602
G1 X76.317 Y92.827 E9.14357
G1 X77.843 Y90.822 E9.22738
G1 X79.299 Y88.792 E9.31047
G1 X80.721 Y86.688 E9.39493
G1 X82.051 Y84.594 E9.47744
G1 X83.358 Y82.402 E9.56232
G1 X84.581 Y80.212 E9.64575
G1 X85.748 Y77.976 E9.72964
G1 X86.851 Y75.709 E9.81349
G1 X87.889 Y73.411 E9.89736
G1 X88.858 Y71.098 E9.98077
G1 X89.762 Y68.746 E10.06457
G1 X90.595 Y66.39 E10.14769
G1 X91.379 Y63.952 E10.23287
G1 X92.068 Y61.584 E10.31489
G1 X92.708 Y59.124 E10.39944
G1 X93.243 Y56.821 E10.47807
G1 X93.494 Y55.917 E10.50928
G1 X93.821 Y55.038 E10.54047
G1 X94.222 Y54.191 E10.57164
G0 F6000 X94.6 Y54.332
G1 F1200 X95.067 Y53.539 E10.60225
G1 X95.601 Y52.789 E10.63287
G1 X96.199 Y52.088 E10.66352
G1 X96.855 Y51.442 E10.69414
G1 X97.564 Y50.856 E10.72473
G1 X98.322 Y50.333 E10.75536
G1 X99.122 Y49.877 E10.78599
G1 X99.959 Y49.493 E10.81662
G1 X100.826 Y49.183 E10.84724
G1 X101.716 Y48.95 E10.87784
G1 X102.624 Y48.794 E10.90849
G1 X103.629 Y48.715 E10.94201
G1 X103.951 Y48.705 E10.95273
G1 X104.28 Y48.7 E10.96367
G1 X115.243 Y48.7 E11.3283
G1 X115.394 Y48.701 E11.33333
G1 X116.095 Y48.711 E11.35664
G1 X117.014 Y48.764 E11.38726
G1 X117.925 Y48.897 E11.41788
G1 X118.821 Y49.108 E11.4485
G1 X119.696 Y49.396 E11.47914
G1 X120.542 Y49.759 E11.50976
G1 X121.353 Y50.194 E11.54037
G1 X122.124 Y50.698 E11.571
G1 X122.848 Y51.267 E11.60163
G1 X123.52 Y51.896 E11.63224
G1 X124.135 Y52.581 E11.66286
G1 X124.688 Y53.317 E11.69348
G1 X125.175 Y54.099 E11.72412
G1 X125.592 Y54.919 E11.75472
G1 X125.937 Y55.773 E11.78535
G1 X126.277 Y56.944 E11.82591
G1 X126.482 Y57.84 E11.85648
G1 X127.106 Y60.376 E11.94334
G1 X127.768 Y62.776 E12.02615
G1 X128.515 Y65.213 E12.11093
G1 X129.319 Y67.591 E12.19442
G1 X130.202 Y69.981 E12.27916
G1 X131.15 Y72.336 E12.3636
G1 X132.151 Y74.634 E12.44697
G1 X133.223 Y76.916 E12.53082
G1 X134.378 Y79.206 E12.61613
G1 X135.557 Y81.388 E12.69862
G1 X136.842 Y83.61 E12.78399
G1 X138.167 Y85.759 E12.86796
G1 X139.549 Y87.867 E12.9518
G1 X140.994 Y89.94 E13.03584
G1 X142.505 Y91.982 E13.12033
G1 X144.045 Y93.945 E13.20332
G1 X145.695 Y95.932 E13.28922
G1 X146.252 Y96.665 E13.31984
G1 X146.743 Y97.444 E13.35047
G1 X147.165 Y98.263 E13.38111
G1 X147.514 Y99.115 E13.41173
G1 X147.788 Y99.993 E13.44232
G1 X147.984 Y100.893 E13.47296
G1 X148.102 Y101.806 E13.50358
G1 X148.135 Y102.379 E13.52267
G1 X148.145 Y102.705 E13.53352
G1 X148.15 Y103.03 E13.54433
G1 X148.15 Y116.974 E14.00811
G1 X148.149 Y117.122 E14.01303
G1 X148.139 Y117.839 E14.03688
G1 X148.086 Y118.758 E14.06749
G1 X147.954 Y119.669 E14.09811
G1 X147.743 Y120.565 E14.12873
G1 X147.455 Y121.44 E14.15937
G1 X147.092 Y122.286 E14.18998
G1 X146.658 Y123.097 E14.22058
G1 X146.154 Y123.868 E14.25121
G1 X145.724 Y124.428 E14.2747
G1 X145.1 Y125.186 E14.30735
G1 X144.968 Y125.343 E14.31418
G1 X144.536 Y125.847 E14.33625
G1 X142.979 Y127.777 E14.41873
G1 X141.42 Y129.825 E14.50434
G1 X139.961 Y131.857 E14.58754
G1 X138.546 Y133.952 E14.67162
G1 X137.194 Y136.08 E14.75548
G1 X135.885 Y138.276 E14.84051
G1 X134.658 Y140.472 E14.92418
G1 X133.495 Y142.699 E15.00774
G1 X132.388 Y144.976 E15.09195
G1 X131.335 Y147.304 E15.17693
G1 X130.353 Y149.65 E15.26152
G1 X129.465 Y151.959 E15.3438
G1 X128.608 Y154.382 E15.42928
G1 X127.843 Y156.761 E15.5124
G1 X127.134 Y159.199 E15.59684
G1 X126.474 Y161.729 E15.68381
G1 X126.142 Y163.094 E15.73053
G1 X125.886 Y163.978 E15.76114
G1 X125.553 Y164.837 E15.79178
G1 X125.148 Y165.663 E15.82238
G1 X124.672 Y166.452 E15.85303
G1 X124.13 Y167.196 E15.88365
G1 X123.525 Y167.89 E15.91427
G1 X122.862 Y168.529 E15.94489
G1 X122.147 Y169.108 E15.97549
G1 X121.383 Y169.623 E16.00614
G1 X120.578 Y170.069 E16.03675
G1 X119.738 Y170.445 E16.06736
G1 X118.867 Y170.745 E16.098
G1 X117.975 Y170.969 E16.12859
G1 X117.066 Y171.115 E16.15921
G1 X116.302 Y171.176 E16.1847
G1 X115.979 Y171.19 E16.19545
G1 X115.52 Y171.2 E16.21072
G1 X104.557 Y171.2 E16.57535
G1 X104.405 Y171.199 E16.58041
G1 X103.707 Y171.189 E16.60363
G1 X102.788 Y171.136 E16.63424
G1 X101.877 Y171.003 E16.66487
G1 X100.981 Y170.792 E16.69548
G1 X100.107 Y170.504 E16.72609
G1 X99.26 Y170.141 E16.75674
G1 X98.449 Y169.706 E16.78735
G1 X97.679 Y169.202 E16.81796
G1 X96.955 Y168.633 E16.84858
G1 X96.283 Y168.003 E16.87922
G1 X95.668 Y167.318 E16.90984
G1 X95.115 Y166.582 E16.94046
G1 X94.628 Y165.801 E16.97107
G1 X94.211 Y164.98 E17.0017
G1 X93.866 Y164.126 E17.03233
G1 X93.537 Y163 E17.07135
G1 X93.42 Y162.498 E17.08849
G1 X92.777 Y159.88 E17.17816
G1 X92.109 Y157.461 E17.26162
G1 X91.369 Y155.053 E17.34541
G1 X90.558 Y152.653 E17.42967
G1 X89.685 Y150.292 E17.51339
G1 X88.729 Y147.917 E17.59854
G1 X87.728 Y145.619 E17.68191
G1 X86.65 Y143.325 E17.76622
G1 X85.516 Y141.078 E17.84993
G1 X84.309 Y138.845 E17.93435
G1 X83.04 Y136.652 E18.01863
G1 X81.71 Y134.495 E18.10291
G1 X80.337 Y132.401 E18.18619
G1 X78.878 Y130.309 E18.27102
G1 X77.382 Y128.286 E18.35471
G1 X75.815 Y126.29 E18.43911
G1 X74.553 Y124.774 E18.50472
G1 X74.463 Y124.664 E18.50944
G1 X74.221 Y124.365 E18.52224
G1 X73.673 Y123.625 E18.55286
G1 X73.192 Y122.84 E18.58348
G1 X72.78 Y122.016 E18.61413
G1 X72.442 Y121.16 E18.64474
G1 X72.179 Y120.278 E18.67535
G1 X71.994 Y119.376 E18.70597
G1 X71.865 Y118.021 E18.75124
G1 X71.855 Y117.695 E18.76209
G1 X71.85 Y117.37 E18.7729
G1 X71.85 Y103.407 E19.23731
G1 X71.851 Y103.255 E19.24237
G1 X71.861 Y102.557 E19.26559
G1 X71.914 Y101.638 E19.2962
G1 X72.047 Y100.727 E19.32682
G1 X72.258 Y99.831 E19.35744
G1 X72.546 Y98.957 E19.38805
G1 X72.909 Y98.11 E19.4187
G1 X73.344 Y97.299 E19.44931
G1 X73.848 Y96.529 E19.47992
G1 X74.287 Y95.959 E19.50384
G1 X74.954 Y95.152 E19.53867
G1 X76.648 Y93.053 E19.62838
G1 X78.154 Y91.075 E19.71107
G1 X79.64 Y89.003 E19.79587
G1 X81.047 Y86.92 E19.87948
G1 X82.399 Y84.792 E19.96333
G1 X83.708 Y82.596 E20.04836
G1 X84.927 Y80.413 E20.13152
G1 X86.105 Y78.158 E20.21614
G1 X87.217 Y75.87 E20.30075
G1 X88.246 Y73.595 E20.3838
G1 X89.241 Y71.218 E20.46951
G1 X90.125 Y68.919 E20.55143
G1 X90.981 Y66.498 E20.63684
G1 X91.755 Y64.091 E20.72093
G1 X92.453 Y61.691 E20.80406
G1 X93.104 Y59.192 E20.88995
G1 X93.633 Y56.912 E20.9678
G1 X93.88 Y56.025 E20.99843
G1 X94.203 Y55.163 E21.02904
G1 X94.6 Y54.332 E21.05967
G0 F6000 X94.977 Y54.474
G1 F1200 X95.44 Y53.699 E21.0897
G1 X95.97 Y52.967 E21.11976
G1 X96.562 Y52.286 E21.14977
G1 X97.213 Y51.659 E21.17983
G1 X97.916 Y51.092 E21.20987
G1 X98.666 Y50.59 E21.23989
G1 X99.458 Y50.156 E21.26993
G1 X100.286 Y49.794 E21.29998
G1 X101.142 Y49.506 E21.33002
G1 X102.02 Y49.296 E21.36005
G1 X102.913 Y49.164 E21.39007
G1 X103.641 Y49.115 E21.41434
G1 X103.963 Y49.105 E21.42505
G1 X104.28 Y49.1 E21.4356
G1 X115.243 Y49.1 E21.80023
G1 X115.388 Y49.101 E21.80505
G1 X116.089 Y49.111 E21.82837
G1 X116.991 Y49.164 E21.85842
G1 X117.884 Y49.296 E21.88845
G1 X118.763 Y49.507 E21.91851
G1 X119.619 Y49.795 E21.94855
G1 X120.446 Y50.157 E21.97858
G1 X121.238 Y50.591 E22.00862
G1 X121.988 Y51.094 E22.03865
G1 X122.691 Y51.661 E22.06869
G1 X123.341 Y52.287 E22.09871
G1 X123.934 Y52.969 E22.12876
G1 X124.463 Y53.701 E22.1588
G1 X124.926 Y54.476 E22.18883
G1 X125.318 Y55.29 E22.21888
G1 X125.637 Y56.135 E22.24892
G1 X125.887 Y57.034 E22.27996
G1 X126.095 Y57.944 E22.311
G1 X126.711 Y60.448 E22.39677
G1 X127.392 Y62.918 E22.48199
G1 X128.13 Y65.321 E22.5656
G1 X128.951 Y67.753 E22.65097
G1 X129.827 Y70.121 E22.73495
G1 X130.763 Y72.448 E22.81837
G1 X131.794 Y74.814 E22.90421
G1 X132.861 Y77.087 E22.98772
G1 X134.027 Y79.397 E23.07379
G1 X135.216 Y81.599 E23.15702
G1 X136.497 Y83.814 E23.24213
G1 X137.824 Y85.966 E23.32622
G1 X139.214 Y88.086 E23.41053
G1 X140.66 Y90.162 E23.49468
G1 X142.185 Y92.221 E23.5799
G1 X143.757 Y94.225 E23.66461
G1 X145.387 Y96.188 E23.74948
G1 X145.933 Y96.908 E23.77953
G1 X146.413 Y97.673 E23.80957
G1 X146.823 Y98.477 E23.83959
G1 X147.16 Y99.315 E23.86963
G1 X147.423 Y100.179 E23.89967
G1 X147.607 Y101.063 E23.9297
G1 X147.735 Y102.391 E23.97407
G1 X147.745 Y102.717 E23.98492
G1 X147.75 Y103.03 E23.99533
G1 X147.75 Y116.974 E24.45911
G1 X147.749 Y117.116 E24.46383
G1 X147.739 Y117.833 E24.48768
G1 X147.686 Y118.735 E24.51774
G1 X147.554 Y119.628 E24.54776
G1 X147.344 Y120.506 E24.57779
G1 X147.056 Y121.363 E24.60786
G1 X146.694 Y122.19 E24.63788
G1 X146.26 Y122.982 E24.66792
G1 X145.758 Y123.733 E24.69797
G1 X145.415 Y124.174 E24.71655
G1 X144.791 Y124.932 E24.7492
G1 X144.664 Y125.083 E24.75577
G1 X144.237 Y125.582 E24.77761
G1 X142.665 Y127.53 E24.86087
G1 X141.093 Y129.595 E24.94718
G1 X139.638 Y131.622 E25.03017
G1 X138.21 Y133.735 E25.115
G1 X136.84 Y135.892 E25.19999
G1 X135.55 Y138.055 E25.28375
G1 X134.312 Y140.271 E25.36818
G1 X133.125 Y142.546 E25.45352
G1 X132.021 Y144.815 E25.53745
G1 X130.973 Y147.134 E25.62209
G1 X129.992 Y149.477 E25.70657
G1 X129.081 Y151.842 E25.79087
G1 X128.229 Y154.252 E25.87589
G1 X127.461 Y156.642 E25.95938
G1 X126.748 Y159.091 E26.04422
G1 X126.079 Y161.66 E26.13251
G1 X125.753 Y162.999 E26.17835
G1 X125.501 Y163.867 E26.20841
G1 X125.173 Y164.708 E26.23843
G1 X124.772 Y165.517 E26.26847
G1 X124.301 Y166.288 E26.29852
G1 X123.763 Y167.013 E26.32854
G1 X123.164 Y167.689 E26.35858
G1 X122.507 Y168.308 E26.38861
G1 X121.798 Y168.868 E26.41866
G1 X121.042 Y169.362 E26.44869
G1 X120.245 Y169.787 E26.47874
G1 X119.414 Y170.14 E26.50877
G1 X118.555 Y170.419 E26.5388
G1 X117.674 Y170.62 E26.56886
G1 X116.78 Y170.743 E26.59887
G1 X116.285 Y170.776 E26.61537
G1 X115.962 Y170.79 E26.62613
G1 X115.52 Y170.8 E26.64083
G1 X104.557 Y170.8 E27.00546
G1 X104.411 Y170.799 E27.01032
G1 X103.713 Y170.789 E27.03354
G1 X102.811 Y170.736 E27.06359
G1 X101.918 Y170.604 E27.09361
G1 X101.04 Y170.393 E27.12365
G1 X100.184 Y170.105 E27.15369
G1 X99.357 Y169.743 E27.18371
G1 X98.565 Y169.308 E27.21377
G1 X97.814 Y168.806 E27.24381
G1 X97.111 Y168.239 E27.27385
G1 X96.461 Y167.612 E27.30389
G1 X95.869 Y166.93 E27.33393
G1 X95.339 Y166.199 E27.36396
G1 X94.877 Y165.423 E27.39399
G1 X94.484 Y164.61 E27.42403
G1 X94.166 Y163.765 E27.45406
G1 X93.926 Y162.909 E27.48363
G1 X93.781 Y162.288 E27.50484
G1 X93.173 Y159.817 E27.58947
G1 X92.49 Y157.343 E27.67484
G1 X91.744 Y154.913 E27.75938
G1 X90.94 Y152.534 E27.8429
