;FLAVOR:Marlin
;TIME:2813
;Filament used: 1.77283m
;Layer height: 0.2
;MINX:83.75
;MINY:64.3
;MINZ:0.2
;MAXX:136.25
;MAXY:155.7
;MAXZ:8
;Generated with Cura_SteamEngine 4.4.1
M140 S60
M105
M190 S60
M104 S200
M105
M109 S200
M82 ;absolute extrusion mode
M201 X500.00 Y500.00 Z100.00 E5000.00 ;Setup machine max acceleration
M203 X500.00 Y500.00 Z10.00 E50.00 ;Setup machine max feedrate
M204 P500.00 R1000.00 T500.00 ;Setup Print/Retract/Travel acceleration
M205 X8.00 Y8.00 Z0.40 E5.00 ;Setup Jerk
M220 S100 ;Reset Feedrate
M221 S100 ;Reset Flowrate

G28 ;Home

G92 E0 ;Reset Extruder
G1 Z2.0 F3000 ;Move Z Axis up
G1 X10.1 Y20 Z0.28 F5000.0 ;Move to start position
G1 X10.1 Y200.0 Z0.28 F1500.0 E15 ;Draw the first line
G1 X10.4 Y200.0 Z0.28 F5000.0 ;Move to side a little
G1 X10.4 Y20 Z0.28 F1500.0 E30 ;Draw the second line
G92 E0 ;Reset Extruder
G1 Z2.0 F3000 ;Move Z Axis up

G92 E0
G92 E0
G1 F1500 E-6.5
;LAYER_COUNT:40
;LAYER:0
M107
G0 F6000 X86.323 Y75.598 Z0.2
;TYPE:SKIRT
G1 F1500 E0
G1 F1200 X86.954 Y74.905 E0.03117
G1 X87.643 Y74.269 E0.06236
G1 X88.383 Y73.693 E0.09355
G1 X88.979 Y73.298 E0.11733
G1 X91.137 Y71.965 E0.2017
G1 X93.23 Y70.591 E0.28497
G1 X95.324 Y69.129 E0.36991
G1 X97.328 Y67.646 E0.45283
G1 X97.802 Y67.274 E0.47287
G1 X97.92 Y67.183 E0.47783
G1 X98.733 Y66.563 E0.51183
G1 X99.502 Y66.027 E0.54301
G1 X100.314 Y65.558 E0.5742
G1 X101.163 Y65.16 E0.60539
G1 X102.043 Y64.836 E0.63657
G1 X102.948 Y64.587 E0.66779
G1 X103.87 Y64.417 E0.69898
G1 X105.067 Y64.315 E0.73893
G1 X105.394 Y64.305 E0.74981
G1 X105.73 Y64.3 E0.76099
G1 X114.693 Y64.3 E1.0591
G1 X114.851 Y64.301 E1.06436
G1 X115.549 Y64.311 E1.08757
G1 X116.485 Y64.365 E1.11876
G1 X117.413 Y64.497 E1.14993
G1 X118.327 Y64.709 E1.18114
G1 X119.219 Y64.998 E1.21233
G1 X120.084 Y65.361 E1.24353
G1 X120.914 Y65.797 E1.27471
G1 X121.705 Y66.302 E1.30592
G1 X122.393 Y66.826 E1.33469
G1 X123.156 Y67.456 E1.3676
G1 X125.151 Y69.064 E1.45282
G1 X127.16 Y70.593 E1.53679
G1 X129.188 Y72.048 E1.61981
G1 X131.393 Y73.538 E1.70832
G1 X132.147 Y74.095 E1.7395
G1 X132.85 Y74.715 E1.77068
G1 X133.499 Y75.393 E1.80189
G1 X134.087 Y76.123 E1.83307
G1 X134.611 Y76.901 E1.86427
G1 X135.067 Y77.721 E1.89548
G1 X135.451 Y78.577 E1.92668
G1 X135.761 Y79.462 E1.95787
G1 X135.995 Y80.37 E1.98906
G1 X136.15 Y81.295 E2.02025
G1 X136.221 Y82.116 E2.04766
G1 X136.237 Y82.444 E2.05858
G1 X136.25 Y82.98 E2.07641
G1 X136.25 Y136.424 E3.85397
G1 X136.249 Y136.577 E3.85906
G1 X136.239 Y137.294 E3.88291
G1 X136.186 Y138.231 E3.91412
G1 X136.053 Y139.159 E3.9453
G1 X135.842 Y140.073 E3.9765
G1 X135.554 Y140.965 E4.00768
G1 X135.19 Y141.83 E4.03889
G1 X134.755 Y142.661 E4.07009
G1 X134.25 Y143.451 E4.10127
G1 X133.68 Y144.196 E4.13247
G1 X133.048 Y144.889 E4.16367
G1 X132.36 Y145.526 E4.19485
G1 X131.499 Y146.186 E4.23094
G1 X131.298 Y146.325 E4.23906
G1 X131.298 Y146.326 E4.2391
G1 X129.092 Y147.865 E4.32856
G1 X127.084 Y149.353 E4.41168
G1 X125.116 Y150.898 E4.4949
G1 X123.094 Y152.581 E4.5824
G1 X122.579 Y153.022 E4.60495
G1 X121.841 Y153.601 E4.63615
G1 X121.057 Y154.116 E4.66735
G1 X120.232 Y154.562 E4.69854
G1 X119.372 Y154.936 E4.72973
G1 X118.483 Y155.235 E4.76093
G1 X117.572 Y155.457 E4.79212
G1 X116.359 Y155.63 E4.83287
G1 X116.009 Y155.66 E4.84455
G1 X115.07 Y155.7 E4.87581
G1 X106.107 Y155.7 E5.17392
G1 X105.949 Y155.699 E5.17918
G1 X105.251 Y155.689 E5.2024
G1 X104.315 Y155.635 E5.23358
G1 X103.387 Y155.503 E5.26476
G1 X102.473 Y155.291 E5.29596
G1 X101.581 Y155.002 E5.32715
G1 X100.716 Y154.639 E5.35835
G1 X99.886 Y154.203 E5.38953
G1 X99.095 Y153.698 E5.42075
G1 X98.651 Y153.369 E5.43913
G1 X97.797 Y152.704 E5.47513
G1 X97.645 Y152.584 E5.48157
G1 X97.212 Y152.235 E5.50006
G1 X95.235 Y150.729 E5.58272
G1 X93.184 Y149.259 E5.66665
G1 X91.089 Y147.843 E5.75076
G1 X88.873 Y146.437 E5.83804
G1 X88.103 Y145.901 E5.86925
G1 X87.382 Y145.301 E5.90045
G1 X86.714 Y144.642 E5.93166
G1 X86.105 Y143.929 E5.96284
G1 X85.559 Y143.167 E5.99402
G1 X85.08 Y142.36 E6.02524
G1 X84.672 Y141.516 E6.05641
G1 X84.336 Y140.64 E6.08762
G1 X84.077 Y139.739 E6.1188
G1 X83.895 Y138.819 E6.14999
G1 X83.784 Y137.749 E6.18577
G1 X83.766 Y137.419 E6.19677
G1 X83.75 Y136.82 E6.2167
G1 X83.75 Y83.356 E7.99491
G1 X83.751 Y83.199 E8.00014
G1 X83.761 Y82.499 E8.02342
G1 X83.814 Y81.563 E8.0546
G1 X83.947 Y80.634 E8.08582
G1 X84.159 Y79.72 E8.11702
G1 X84.448 Y78.828 E8.14821
G1 X84.811 Y77.964 E8.17938
G1 X85.247 Y77.133 E8.21059
G1 X85.752 Y76.343 E8.24178
G1 X86.323 Y75.598 E8.273
G0 F6000 X86.717 Y75.752
G1 F1200 X87.346 Y75.08 E8.30361
G1 X88.032 Y74.465 E8.33425
G1 X88.768 Y73.912 E8.36487
G1 X89.189 Y73.638 E8.38158
G1 X91.362 Y72.296 E8.46653
G1 X93.457 Y70.921 E8.54987
G1 X95.545 Y69.463 E8.63458
G1 X97.59 Y67.949 E8.71921
G1 X98.049 Y67.589 E8.73861
G1 X98.162 Y67.501 E8.74337
G1 X98.975 Y66.881 E8.77738
G1 X99.731 Y66.355 E8.80801
G1 X100.529 Y65.897 E8.83861
G1 X101.364 Y65.51 E8.86922
G1 X102.23 Y65.196 E8.89986
G1 X103.12 Y64.959 E8.93049
G1 X104.026 Y64.8 E8.96109
G1 X105.079 Y64.715 E8.99622
G1 X105.406 Y64.705 E9.0071
G1 X105.73 Y64.7 E9.01788
G1 X114.693 Y64.7 E9.31599
G1 X114.845 Y64.701 E9.32105
G1 X115.543 Y64.711 E9.34427
G1 X116.462 Y64.764 E9.37488
G1 X117.373 Y64.897 E9.4055
G1 X118.269 Y65.108 E9.43612
G1 X119.143 Y65.396 E9.46673
G1 X119.99 Y65.759 E9.49738
G1 X120.801 Y66.194 E9.52799
G1 X121.571 Y66.698 E9.5586
G1 X122.138 Y67.135 E9.5824
G1 X122.816 Y67.695 E9.61165
G1 X124.903 Y69.378 E9.70082
G1 X126.93 Y70.921 E9.78555
G1 X128.953 Y72.372 E9.86836
G1 X131.169 Y73.869 E9.9573
G1 X131.908 Y74.417 E9.9879
G1 X132.598 Y75.027 E10.01854
G1 X133.232 Y75.695 E10.04917
G1 X133.805 Y76.415 E10.07977
G1 X134.314 Y77.183 E10.11042
G1 X134.754 Y77.991 E10.14102
G1 X135.123 Y78.835 E10.17165
G1 X135.417 Y79.707 E10.20226
G1 X135.634 Y80.602 E10.23289
G1 X135.773 Y81.512 E10.26351
G1 X135.821 Y82.136 E10.28432
G1 X135.837 Y82.464 E10.29525
G1 X135.85 Y82.98 E10.31241
G1 X135.85 Y136.424 E12.08997
G1 X135.849 Y136.572 E12.09489
G1 X135.839 Y137.289 E12.11874
G1 X135.786 Y138.208 E12.14936
G1 X135.654 Y139.119 E12.17998
G1 X135.443 Y140.015 E12.21059
G1 X135.155 Y140.89 E12.24123
G1 X134.792 Y141.736 E12.27185
G1 X134.358 Y142.547 E12.30244
G1 X133.854 Y143.318 E12.33308
G1 X133.286 Y144.042 E12.36369
G1 X132.656 Y144.714 E12.39432
G1 X131.971 Y145.329 E12.42494
G1 X131.272 Y145.858 E12.4541
G1 X131.035 Y146.022 E12.46368
G1 X128.871 Y147.532 E12.55145
G1 X126.822 Y149.049 E12.63624
G1 X124.859 Y150.591 E12.71927
G1 X122.827 Y152.282 E12.80719
G1 X122.318 Y152.718 E12.82948
G1 X121.594 Y153.286 E12.86009
G1 X120.823 Y153.79 E12.89073
G1 X120.011 Y154.224 E12.92135
G1 X119.165 Y154.586 E12.95196
G1 X118.29 Y154.874 E12.98259
G1 X117.394 Y155.085 E13.01321
G1 X116.325 Y155.231 E13.0491
G1 X115.975 Y155.261 E13.06078
G1 X115.07 Y155.3 E13.09091
G1 X106.107 Y155.3 E13.38902
G1 X105.955 Y155.299 E13.39407
G1 X105.257 Y155.289 E13.41729
G1 X104.338 Y155.236 E13.44791
G1 X103.427 Y155.103 E13.47853
G1 X102.531 Y154.892 E13.50915
G1 X101.657 Y154.604 E13.53975
G1 X100.81 Y154.241 E13.5704
G1 X99.999 Y153.806 E13.60101
G1 X98.896 Y153.053 E13.64543
G1 X98.042 Y152.388 E13.68143
G1 X97.896 Y152.272 E13.68763
G1 X97.482 Y151.938 E13.70533
G1 X95.465 Y150.402 E13.78965
G1 X93.399 Y148.921 E13.8742
G1 X91.321 Y147.517 E13.95761
G1 X89.087 Y146.099 E14.04562
G1 X88.332 Y145.572 E14.07624
G1 X87.625 Y144.982 E14.10687
G1 X86.973 Y144.333 E14.13746
G1 X86.379 Y143.629 E14.1681
G1 X85.848 Y142.877 E14.19872
G1 X85.385 Y142.081 E14.22935
G1 X84.992 Y141.249 E14.25995
G1 X84.674 Y140.385 E14.29057
G1 X84.431 Y139.497 E14.32119
G1 X84.266 Y138.591 E14.35182
G1 X84.184 Y137.727 E14.38069
G1 X84.166 Y137.397 E14.39168
G1 X84.15 Y136.82 E14.41088
G1 X84.15 Y83.356 E16.1891
G1 X84.151 Y83.205 E16.19412
G1 X84.161 Y82.505 E16.21741
G1 X84.214 Y81.585 E16.24806
G1 X84.347 Y80.674 E16.27868
G1 X84.558 Y79.778 E16.30929
G1 X84.846 Y78.904 E16.3399
G1 X85.209 Y78.058 E16.37052
G1 X85.644 Y77.246 E16.40116
G1 X86.148 Y76.476 E16.43177
G1 X86.717 Y75.752 E16.46239
G0 F6000 X87.111 Y75.909
G1 F1200 X87.737 Y75.258 E16.49243
G1 X88.419 Y74.666 E16.52247
G1 X89.399 Y73.978 E16.56229
G1 X91.57 Y72.637 E16.64717
G1 X93.699 Y71.239 E16.73188
G1 X95.79 Y69.78 E16.81668
G1 X97.829 Y68.27 E16.90107
G1 X98.296 Y67.904 E16.92081
G1 X98.405 Y67.819 E16.9254
G1 X99.218 Y67.199 E16.95941
G1 X99.959 Y66.684 E16.98942
G1 X100.744 Y66.236 E17.01949
G1 X101.565 Y65.86 E17.04952
G1 X102.416 Y65.557 E17.07956
G1 X103.29 Y65.331 E17.10959
G1 X104.181 Y65.183 E17.13963
G1 X105.091 Y65.115 E17.16998
G1 X105.418 Y65.105 E17.18086
G1 X105.73 Y65.1 E17.19124
G1 X114.693 Y65.1 E17.48935
G1 X114.839 Y65.101 E17.49421
G1 X115.537 Y65.111 E17.51743
G1 X116.439 Y65.164 E17.54748
G1 X117.332 Y65.296 E17.5775
G1 X118.21 Y65.507 E17.60754
G1 X119.066 Y65.795 E17.63758
G1 X119.893 Y66.157 E17.6676
G1 X120.685 Y66.592 E17.69765
G1 X121.436 Y67.094 E17.7277
G1 X121.884 Y67.443 E17.74659
G1 X122.657 Y68.081 E17.77992
G1 X124.633 Y69.674 E17.86434
G1 X126.701 Y71.248 E17.95078
G1 X128.743 Y72.713 E18.03437
G1 X130.945 Y74.201 E18.12276
G1 X131.67 Y74.739 E18.15279
G1 X132.345 Y75.339 E18.18283
G1 X132.964 Y75.997 E18.21288
G1 X133.522 Y76.707 E18.24291
G1 X134.015 Y77.463 E18.27293
G1 X134.44 Y78.26 E18.30297
G1 X134.792 Y79.092 E18.33302
G1 X135.07 Y79.951 E18.36305
G1 X135.27 Y80.832 E18.3931
G1 X135.422 Y82.155 E18.43739
G1 X135.438 Y82.483 E18.44831
G1 X135.45 Y82.98 E18.46485
G1 X135.45 Y136.424 E20.2424
G1 X135.449 Y136.566 E20.24712
G1 X135.439 Y137.283 E20.27097
G1 X135.386 Y138.185 E20.30103
G1 X135.254 Y139.078 E20.33105
G1 X135.044 Y139.956 E20.36108
G1 X134.756 Y140.813 E20.39115
G1 X134.394 Y141.64 E20.42117
G1 X133.96 Y142.432 E20.45121
G1 X133.458 Y143.183 E20.48125
G1 X132.892 Y143.886 E20.51127
G1 X132.265 Y144.536 E20.54131
G1 X131.583 Y145.129 E20.57137
G1 X131.044 Y145.529 E20.59369
G1 X130.807 Y145.693 E20.60328
G1 X128.626 Y147.215 E20.69174
G1 X126.605 Y148.712 E20.77539
G1 X124.601 Y150.285 E20.86012
G1 X122.587 Y151.961 E20.94727
G1 X122.058 Y152.414 E20.97043
G1 X121.347 Y152.971 E21.00047
G1 X120.59 Y153.463 E21.0305
G1 X119.792 Y153.886 E21.06054
G1 X118.959 Y154.236 E21.09059
G1 X118.099 Y154.512 E21.12063
G1 X117.218 Y154.71 E21.15067
G1 X116.291 Y154.833 E21.18177
G1 X115.941 Y154.863 E21.19345
G1 X115.07 Y154.9 E21.22245
G1 X106.107 Y154.9 E21.52056
G1 X105.961 Y154.899 E21.52542
G1 X105.263 Y154.889 E21.54863
G1 X104.361 Y154.836 E21.57869
G1 X103.468 Y154.704 E21.60871
G1 X102.59 Y154.493 E21.63874
G1 X101.734 Y154.205 E21.66878
G1 X100.907 Y153.843 E21.69881
G1 X100.115 Y153.408 E21.72886
G1 X99.142 Y152.738 E21.76815
G1 X98.288 Y152.073 E21.80415
G1 X98.147 Y151.961 E21.81014
G1 X97.73 Y151.624 E21.82798
G1 X95.694 Y150.075 E21.91306
G1 X93.634 Y148.598 E21.99737
G1 X91.529 Y147.175 E22.08188
G1 X89.301 Y145.761 E22.16965
G1 X88.561 Y145.244 E22.19967
G1 X87.869 Y144.663 E22.22973
G1 X87.232 Y144.024 E22.25974
G1 X86.653 Y143.33 E22.2898
G1 X86.139 Y142.588 E22.31982
G1 X85.691 Y141.804 E22.34985
G1 X85.315 Y140.982 E22.37992
G1 X85.013 Y140.131 E22.40995
G1 X84.788 Y139.257 E22.43997
G1 X84.641 Y138.366 E22.47
G1 X84.583 Y137.706 E22.49204
G1 X84.565 Y137.376 E22.50303
G1 X84.55 Y136.82 E22.52153
G1 X84.55 Y83.356 E24.29975
G1 X84.551 Y83.21 E24.30461
G1 X84.561 Y82.51 E24.32789
G1 X84.614 Y81.609 E24.35791
G1 X84.746 Y80.715 E24.38797
G1 X84.957 Y79.837 E24.418
G1 X85.245 Y78.981 E24.44804
G1 X85.607 Y78.154 E24.47806
G1 X86.041 Y77.362 E24.5081
G1 X86.544 Y76.612 E24.53814
G1 X87.111 Y75.909 E24.56818
G1 F1500 E18.06818
;MESH:relay holder 3.stl
G0 F6000 X119.273 Y87.338
G0 X117.397 Y87.328
G0 X119.144 Y89.503
;TYPE:WALL-INNER
G1 F1500 E24.56818
G1 F1200 X119.829 Y89.612 E24.59125
G1 X120.525 Y89.511 E24.61464
G1 X121.16 Y89.195 E24.63823
G1 X121.678 Y88.686 E24.66238
G1 X122.004 Y88.051 E24.68612
G1 X122.112 Y87.369 E24.70909
G1 X122.011 Y86.675 E24.73242
G1 X121.695 Y86.04 E24.75601
G1 X121.192 Y85.526 E24.77993
G1 X120.552 Y85.196 E24.80388
G1 X119.869 Y85.088 E24.82688
G1 X119.155 Y85.194 E24.85088
G1 X118.537 Y85.508 E24.87394
G1 X118.035 Y85.999 E24.89729
G1 X117.699 Y86.639 E24.92134
G1 X117.589 Y87.329 E24.94458
G1 X117.694 Y88.042 E24.96855
G1 X118.009 Y88.666 E24.99179
G1 X118.502 Y89.166 E25.01515
G1 X119.144 Y89.503 E25.03927
G0 F6000 X119.272 Y89.118
G1 F1200 X119.832 Y89.207 E25.05812
G1 X120.404 Y89.124 E25.07735
G1 X120.925 Y88.865 E25.0967
G1 X121.352 Y88.446 E25.1166
G1 X121.619 Y87.925 E25.13607
G1 X121.707 Y87.367 E25.15486
G1 X121.624 Y86.796 E25.17405
G1 X121.365 Y86.275 E25.1934
G1 X120.951 Y85.852 E25.21309
G1 X120.426 Y85.581 E25.23274
G1 X119.867 Y85.493 E25.25156
G1 X119.278 Y85.58 E25.27136
G1 X118.773 Y85.837 E25.29021
G1 X118.36 Y86.241 E25.30942
G1 X118.084 Y86.767 E25.32918
G1 X117.994 Y87.332 E25.34821
G1 X118.08 Y87.92 E25.36797
G1 X118.338 Y88.43 E25.38698
G1 X118.743 Y88.841 E25.40618
G1 X119.272 Y89.118 E25.42604
G0 F6000 X119.399 Y88.733
;TYPE:WALL-OUTER
G1 F1200 X119.835 Y88.802 E25.44072
G1 X120.283 Y88.737 E25.45578
G1 X120.69 Y88.535 E25.47089
G1 X121.026 Y88.206 E25.48653
G1 X121.234 Y87.8 E25.5017
G1 X121.302 Y87.365 E25.51634
G1 X121.237 Y86.917 E25.5314
G1 X121.035 Y86.51 E25.54651
G1 X120.71 Y86.178 E25.56197
G1 X120.3 Y85.966 E25.57732
G1 X119.865 Y85.898 E25.59196
G1 X119.401 Y85.966 E25.60756
G1 X119.009 Y86.166 E25.6222
G1 X118.685 Y86.483 E25.63727
G1 X118.469 Y86.895 E25.65274
G1 X118.399 Y87.335 E25.66756
G1 X118.466 Y87.798 E25.68312
G1 X118.667 Y88.194 E25.69789
G1 X118.984 Y88.516 E25.71292
G1 X119.399 Y88.733 E25.7285
G0 F6000 X119.261 Y89.15
G1 F1500 E19.2285
G0 F6000 X118.471 Y88.335
G0 X118.281 Y87.96
G0 X117.88 Y85.883
G0 X117.88 Y83.86
G0 X115.234 Y83.06
G0 X114.972 Y83.078
G0 X114.218 Y76.482
G0 X112.181 Y76.495
G0 X113.131 Y79.892
G0 X112.599 Y80.449
G0 X110.097 Y81.51
;TYPE:WALL-INNER
G1 F1500 E25.7285
G1 F1200 X110.907 Y81.382 E25.75577
G1 X111.611 Y81.023 E25.78206
G1 X112.192 Y80.456 E25.80906
G1 X112.581 Y79.71 E25.83704
G1 X112.706 Y78.925 E25.86348
G1 X112.583 Y78.096 E25.89135
G1 X112.223 Y77.389 E25.91774
G1 X111.656 Y76.809 E25.94472
G1 X110.934 Y76.43 E25.97184
G1 X110.161 Y76.298 E25.99792
G1 X110.103 Y76.289 E25.99987
G1 X110.041 Y76.298 E26.00196
G1 X109.318 Y76.414 E26.02631
G1 X108.568 Y76.786 E26.05416
G1 X108.007 Y77.348 E26.08057
G1 X107.619 Y78.09 E26.10842
G1 X107.494 Y78.875 E26.13486
G1 X107.617 Y79.704 E26.16273
G1 X107.988 Y80.434 E26.18997
G1 X108.547 Y80.993 E26.21626
G1 X109.267 Y81.37 E26.24329
G1 X110.097 Y81.51 E26.27129
G0 F6000 X110.099 Y81.105
;TYPE:WALL-OUTER
G1 F1200 X110.782 Y80.997 E26.29429
G1 X111.375 Y80.694 E26.31644
G1 X111.867 Y80.214 E26.3393
G1 X112.196 Y79.583 E26.36297
G1 X112.301 Y78.923 E26.38519
G1 X112.197 Y78.219 E26.40886
G1 X111.894 Y77.625 E26.43104
G1 X111.414 Y77.134 E26.45388
G1 X110.804 Y76.814 E26.47679
G1 X110.101 Y76.694 E26.50051
G1 X109.441 Y76.799 E26.52274
G1 X108.805 Y77.115 E26.54636
G1 X108.333 Y77.587 E26.56856
G1 X108.004 Y78.217 E26.5922
G1 X107.899 Y78.877 E26.61443
G1 X108.003 Y79.581 E26.6381
G1 X108.316 Y80.196 E26.66105
G1 X108.787 Y80.667 E26.6832
G1 X109.396 Y80.986 E26.70607
G1 X110.099 Y81.105 E26.72978
G0 F6000 X110.097 Y81.545
G1 F1500 E20.22978
G0 F6000 X108.181 Y81.49
G0 X109.304 Y79.962
G0 X100.525 Y87.12
G0 X102.049 Y86.024
G0 X101.655 Y87.99
G0 X100.744 Y89.606
;TYPE:WALL-INNER
G1 F1500 E26.72978
G1 F1200 X101.363 Y89.292 E26.75287
G1 X101.88 Y88.786 E26.77693
G1 X102.194 Y88.168 E26.79999
G1 X102.315 Y87.457 E26.82397
G1 X102.204 Y86.751 E26.84774
G1 X101.892 Y86.137 E26.87065
G1 X101.401 Y85.635 E26.89401
G1 X100.774 Y85.305 E26.91757
G1 X100.055 Y85.184 E26.94182
G1 X99.35 Y85.296 E26.96556
G1 X98.721 Y85.615 E26.98902
G1 X98.232 Y86.104 E27.01202
G1 X97.906 Y86.727 E27.03541
G1 X97.789 Y87.426 E27.05898
G1 X97.894 Y88.144 E27.08312
G1 X98.208 Y88.763 E27.1062
G1 X98.714 Y89.28 E27.13026
G1 X99.333 Y89.594 E27.15335
G1 X100.029 Y89.711 E27.17682
G1 X100.744 Y89.606 E27.20086
G0 F6000 X100.621 Y89.22
G1 F1200 X101.127 Y88.963 E27.21973
